leejeongho3214/Synthetic-Hand-Dataset-Including-a-Forearm/train.label.tsv
00000000.jpg	[{"center": [112, 112], "scale": 0.9, "2d_joints": [[131.4768940205016, 93.51373911989326, 1.0], [115.25514183908237, 84.06097876167885, 1.0], [105.88463862050534, 84.5854577099654, 1.0], [94.50168750399692, 93.26688698971554, 1.0], [78.98824452925486, 104.0501218235335, 1.0], [101.82265661888262, 105.35759085038991, 1.0], [92.17456645408996, 111.85755356515958, 1.0], [84.41599324868237, 115.98129828141303, 1.0], [78.9745503665487, 122.42578966938777, 1.0], [97.16411939007405, 119.14486485616035, 1.0], [86.62781285209445, 128.24283915772278, 1.0], [78.4159814180122, 134.7244447920884, 1.0], [73.84406513742165, 144.07088359327778, 1.0], [95.55246012157508, 127.12309263529436, 1.0], [85.40247158298146, 133.96378733581219, 1.0], [76.19598544219458, 140.8857994483108, 1.0], [69.26745710736786, 147.90199952067448, 1.0], [93.36893067968045, 131.40327586029886, 1.0], [84.57483726064683, 140.0324643606842, 1.0], [76.85251383221191, 147.21305270034102, 1.0], [72.10039976681327, 155.76313093744338, 1.0]], "has_2d_joints": 1, "3d_joints": [[0.0, 0.0, 0.0, 1.0], [-0.024261213839054108, -0.0162252988666296, 0.02711045742034912, 1.0], [-0.039469730108976364, -0.01723419316112995, 0.053165972232818604, 1.0], [-0.05885833874344826, -0.0036300960928201675, 0.06758838891983032, 1.0], [-0.0865418016910553, 0.014153124764561653, 0.08606594800949097, 1.0], [-0.04690279811620712, 0.016492487862706184, 0.08166682720184326, 1.0], [-0.06491195783019066, 0.027664942666888237, 0.10949259996414185, 1.0], [-0.08002666383981705, 0.03523060120642185, 0.1266663670539856, 1.0], [-0.0918632410466671, 0.04764816723763943, 0.14845114946365356, 1.0], [-0.0546533428132534, 0.04008699767291546, 0.07484656572341919, 1.0], [-0.07403890788555145, 0.05650989152491093, 0.0971076488494873, 1.0], [-0.0897793099284172, 0.06879407353699207, 0.11208593845367432, 1.0], [-0.09989191591739655, 0.08719734288752079, 0.1313825249671936, 1.0], [-0.05635898560285568, 0.0527185071259737, 0.05031561851501465, 1.0], [-0.07451490312814713, 0.06519179977476597, 0.07254713773727417, 1.0], [-0.09156686067581177, 0.07809770293533802, 0.08815103769302368, 1.0], [-0.10579437017440796, 0.09213296137750149, 0.10815316438674927, 1.0], [-0.05892663076519966, 0.0586834941059351, 0.029210448265075684, 1.0], [-0.0735909678041935, 0.07310966588556767, 0.03953909873962402, 1.0], [-0.08688651770353317, 0.08553999103605747, 0.04897654056549072, 1.0], [-0.09603031724691391, 0.10103580914437771, 0.062345683574676514, 1.0]], "has_3d_joints": 1, "hrnet_2d_joints": [[132.3263702392578, 90.1632080078125], [117.1009521484375, 82.14982604980469], [105.88221740722656, 85.35517883300781], [93.06080627441406, 93.36856079101562], [75.43136596679688, 101.38194274902344], [101.87551879882812, 103.78594970703125], [91.4581298828125, 110.99800109863281], [82.64340209960938, 115.00468444824219], [77.03404235839844, 121.41539001464844], [97.86883544921875, 117.40870666503906], [86.65010070800781, 127.02476501464844], [77.83537292480469, 133.4354705810547], [72.22601318359375, 139.84617614746094], [96.26615905761719, 126.22341918945312], [85.04742431640625, 133.4354705810547], [75.43136596679688, 139.84617614746094], [65.8153076171875, 147.05821228027344], [92.25946044921875, 130.23011779785156], [84.24607849121094, 139.84617614746094], [75.43136596679688, 147.05821228027344], [68.21931457519531, 153.4689178466797]], "has_hrnet_2d_joints": 1, "pose": [0.7129087448120117, 0.7157421708106995, -0.7928966283798218, -0.005629386752843857, -0.020847106352448463, -0.25697168707847595, 0.019605889916419983, 0.020119965076446533, -0.752727746963501, 0.016962876543402672, -0.16247829794883728, -0.47104501724243164, 0.2712077796459198, 0.07267540693283081, -0.38628798723220825, -0.0600123330950737, -0.04881877079606056, -0.7962555289268494, 0.037846919149160385, -0.04672650247812271, -0.49364858865737915, 0.5203770399093628, 0.0690668448805809, -0.5552831292152405, 0.21080641448497772, -0.20642486214637756, -0.3631074130535126, 0.3601369559764862, -0.027657518163323402, -0.5777040719985962, 0.28868335485458374, 0.05730121210217476, -0.4341995418071747, 0.1606927365064621, -0.2036343216896057, -0.8283606767654419, 0.13506746292114258, 0.09893530607223511, -0.45706236362457275, -0.007289777975529432, -0.26253533363342285, -0.17645134031772614, 0.07994092255830765, -0.23175597190856934, -0.04307592287659645, -0.06330021470785141, -0.042456887662410736, 0.09345488995313644], "betas": [-1.3561997413635254, -0.6509119272232056, -0.9231566190719604, -0.24672865867614746, -0.9590042233467102, 0.14941932260990143, 0.34542226791381836, -1.0803346633911133, -0.14896726608276367, -0.31625398993492126], "has_smpl": 1}]
00032560.jpg	[{"center": [112, 112], "scale": 0.9, "2d_joints": [[131.4768940205016, 93.51373911989326, 1.0], [115.25514183908237, 84.06097876167885, 1.0], [105.88463862050534, 84.5854577099654, 1.0], [94.50168750399692, 93.26688698971554, 1.0], [78.98824452925486, 104.0501218235335, 1.0], [101.82265661888262, 105.35759085038991, 1.0], [92.17456645408996, 111.85755356515958, 1.0], [84.41599324868237, 115.98129828141303, 1.0], [78.9745503665487, 122.42578966938777, 1.0], [97.16411939007405, 119.14486485616035, 1.0], [86.62781285209445, 128.24283915772278, 1.0], [78.4159814180122, 134.7244447920884, 1.0], [73.84406513742165, 144.07088359327778, 1.0], [95.55246012157508, 127.12309263529436, 1.0], [85.40247158298146, 133.96378733581219, 1.0], [76.19598544219458, 140.8857994483108, 1.0], [69.26745710736786, 147.90199952067448, 1.0], [93.36893067968045, 131.40327586029886, 1.0], [84.57483726064683, 140.0324643606842, 1.0], [76.85251383221191, 147.21305270034102, 1.0], [72.10039976681327, 155.76313093744338, 1.0]], "has_2d_joints": 1, "3d_joints": [[0.0, 0.0, 0.0, 1.0], [-0.024261213839054108, -0.0162252988666296, 0.02711045742034912, 1.0], [-0.039469730108976364, -0.01723419316112995, 0.053165972232818604, 1.0], [-0.05885833874344826, -0.0036300960928201675, 0.06758838891983032, 1.0], [-0.0865418016910553, 0.014153124764561653, 0.08606594800949097, 1.0], [-0.04690279811620712, 0.016492487862706184, 0.08166682720184326, 1.0], [-0.06491195783019066, 0.027664942666888237, 0.10949259996414185, 1.0], [-0.08002666383981705, 0.03523060120642185, 0.1266663670539856, 1.0], [-0.0918632410466671, 0.04764816723763943, 0.14845114946365356, 1.0], [-0.0546533428132534, 0.04008699767291546, 0.07484656572341919, 1.0], [-0.07403890788555145, 0.05650989152491093, 0.0971076488494873, 1.0], [-0.0897793099284172, 0.06879407353699207, 0.11208593845367432, 1.0], [-0.09989191591739655, 0.08719734288752079, 0.1313825249671936, 1.0], [-0.05635898560285568, 0.0527185071259737, 0.05031561851501465, 1.0], [-0.07451490312814713, 0.06519179977476597, 0.07254713773727417, 1.0], [-0.09156686067581177, 0.07809770293533802, 0.08815103769302368, 1.0], [-0.10579437017440796, 0.09213296137750149, 0.10815316438674927, 1.0], [-0.05892663076519966, 0.0586834941059351, 0.029210448265075684, 1.0], [-0.0735909678041935, 0.07310966588556767, 0.03953909873962402, 1.0], [-0.08688651770353317, 0.08553999103605747, 0.04897654056549072, 1.0], [-0.09603031724691391, 0.10103580914437771, 0.062345683574676514, 1.0]], "has_3d_joints": 1, "hrnet_2d_joints": [[132.3263702392578, 93.36856079101562], [116.29960632324219, 82.95115661621094], [106.68354797363281, 84.5538330078125], [93.86213684082031, 92.56721496582031], [77.83537292480469, 100.58059692382812], [101.07418823242188, 103.78594970703125], [91.4581298828125, 112.60067749023438], [83.44474792480469, 116.60736083984375], [76.23269653320312, 122.21673583984375], [96.26615905761719, 118.21003723144531], [85.8487548828125, 127.02476501464844], [77.83537292480469, 134.23680114746094], [72.22601318359375, 141.4488525390625], [95.46481323242188, 127.02476501464844], [84.24607849121094, 135.03814697265625], [75.43136596679688, 140.6475067138672], [65.8153076171875, 149.4622344970703], [92.25946044921875, 130.23011779785156], [83.44474792480469, 140.6475067138672], [75.43136596679688, 148.660888671875], [67.41798400878906, 155.07159423828125]], "has_hrnet_2d_joints": 1, "pose": [0.7129087448120117, 0.7157421708106995, -0.7928966283798218, -0.005629386752843857, -0.020847106352448463, -0.25697168707847595, 0.019605889916419983, 0.020119965076446533, -0.752727746963501, 0.016962876543402672, -0.16247829794883728, -0.47104501724243164, 0.2712077796459198, 0.07267540693283081, -0.38628798723220825, -0.0600123330950737, -0.04881877079606056, -0.7962555289268494, 0.037846919149160385, -0.04672650247812271, -0.49364858865737915, 0.5203770399093628, 0.0690668448805809, -0.5552831292152405, 0.21080641448497772, -0.20642486214637756, -0.3631074130535126, 0.3601369559764862, -0.027657518163323402, -0.5777040719985962, 0.28868335485458374, 0.05730121210217476, -0.4341995418071747, 0.1606927365064621, -0.2036343216896057, -0.8283606767654419, 0.13506746292114258, 0.09893530607223511, -0.45706236362457275, -0.007289777975529432, -0.26253533363342285, -0.17645134031772614, 0.07994092255830765, -0.23175597190856934, -0.04307592287659645, -0.06330021470785141, -0.042456887662410736, 0.09345488995313644], "betas": [-1.3561997413635254, -0.6509119272232056, -0.9231566190719604, -0.24672865867614746, -0.9590042233467102, 0.14941932260990143, 0.34542226791381836, -1.0803346633911133, -0.14896726608276367, -0.31625398993492126], "has_smpl": 1}]
00065120.jpg	[{"center": [112, 112], "scale": 0.9, "2d_joints": [[131.4768940205016, 93.51373911989326, 1.0], [115.25514183908237, 84.06097876167885, 1.0], [105.88463862050534, 84.5854577099654, 1.0], [94.50168750399692, 93.26688698971554, 1.0], [78.98824452925486, 104.0501218235335, 1.0], [101.82265661888262, 105.35759085038991, 1.0], [92.17456645408996, 111.85755356515958, 1.0], [84.41599324868237, 115.98129828141303, 1.0], [78.9745503665487, 122.42578966938777, 1.0], [97.16411939007405, 119.14486485616035, 1.0], [86.62781285209445, 128.24283915772278, 1.0], [78.4159814180122, 134.7244447920884, 1.0], [73.84406513742165, 144.07088359327778, 1.0], [95.55246012157508, 127.12309263529436, 1.0], [85.40247158298146, 133.96378733581219, 1.0], [76.19598544219458, 140.8857994483108, 1.0], [69.26745710736786, 147.90199952067448, 1.0], [93.36893067968045, 131.40327586029886, 1.0], [84.57483726064683, 140.0324643606842, 1.0], [76.85251383221191, 147.21305270034102, 1.0], [72.10039976681327, 155.76313093744338, 1.0]], "has_2d_joints": 1, "3d_joints": [[0.0, 0.0, 0.0, 1.0], [-0.024261213839054108, -0.0162252988666296, 0.02711045742034912, 1.0], [-0.039469730108976364, -0.01723419316112995, 0.053165972232818604, 1.0], [-0.05885833874344826, -0.0036300960928201675, 0.06758838891983032, 1.0], [-0.0865418016910553, 0.014153124764561653, 0.08606594800949097, 1.0], [-0.04690279811620712, 0.016492487862706184, 0.08166682720184326, 1.0], [-0.06491195783019066, 0.027664942666888237, 0.10949259996414185, 1.0], [-0.08002666383981705, 0.03523060120642185, 0.1266663670539856, 1.0], [-0.0918632410466671, 0.04764816723763943, 0.14845114946365356, 1.0], [-0.0546533428132534, 0.04008699767291546, 0.07484656572341919, 1.0], [-0.07403890788555145, 0.05650989152491093, 0.0971076488494873, 1.0], [-0.0897793099284172, 0.06879407353699207, 0.11208593845367432, 1.0], [-0.09989191591739655, 0.08719734288752079, 0.1313825249671936, 1.0], [-0.05635898560285568, 0.0527185071259737, 0.05031561851501465, 1.0], [-0.07451490312814713, 0.06519179977476597, 0.07254713773727417, 1.0], [-0.09156686067581177, 0.07809770293533802, 0.08815103769302368, 1.0], [-0.10579437017440796, 0.09213296137750149, 0.10815316438674927, 1.0], [-0.05892663076519966, 0.0586834941059351, 0.029210448265075684, 1.0], [-0.0735909678041935, 0.07310966588556767, 0.03953909873962402, 1.0], [-0.08688651770353317, 0.08553999103605747, 0.04897654056549072, 1.0], [-0.09603031724691391, 0.10103580914437771, 0.062345683574676514, 1.0]], "has_3d_joints": 1, "hrnet_2d_joints": [[132.3263702392578, 93.36856079101562], [117.1009521484375, 82.95115661621094], [106.68354797363281, 85.35517883300781], [93.86213684082031, 93.36856079101562], [78.63671875, 102.984619140625], [101.87551879882812, 103.78594970703125], [91.4581298828125, 112.60067749023438], [84.24607849121094, 116.60736083984375], [77.03404235839844, 123.01806640625], [97.06748962402344, 119.01138305664062], [86.65010070800781, 127.02476501464844], [78.63671875, 133.4354705810547], [72.22601318359375, 140.6475067138672], [96.26615905761719, 127.02476501464844], [85.8487548828125, 134.23680114746094], [75.43136596679688, 139.84617614746094], [66.61663818359375, 148.660888671875], [92.25946044921875, 131.0314483642578], [84.24607849121094, 139.84617614746094], [75.43136596679688, 147.85955810546875], [68.21931457519531, 154.270263671875]], "has_hrnet_2d_joints": 1, "pose": [0.7129087448120117, 0.7157421708106995, -0.7928966283798218, -0.005629386752843857, -0.020847106352448463, -0.25697168707847595, 0.019605889916419983, 0.020119965076446533, -0.752727746963501, 0.016962876543402672, -0.16247829794883728, -0.47104501724243164, 0.2712077796459198, 0.07267540693283081, -0.38628798723220825, -0.0600123330950737, -0.04881877079606056, -0.7962555289268494, 0.037846919149160385, -0.04672650247812271, -0.49364858865737915, 0.5203770399093628, 0.0690668448805809, -0.5552831292152405, 0.21080641448497772, -0.20642486214637756, -0.3631074130535126, 0.3601369559764862, -0.027657518163323402, -0.5777040719985962, 0.28868335485458374, 0.05730121210217476, -0.4341995418071747, 0.1606927365064621, -0.2036343216896057, -0.8283606767654419, 0.13506746292114258, 0.09893530607223511, -0.45706236362457275, -0.007289777975529432, -0.26253533363342285, -0.17645134031772614, 0.07994092255830765, -0.23175597190856934, -0.04307592287659645, -0.06330021470785141, -0.042456887662410736, 0.09345488995313644], "betas": [-1.3561997413635254, -0.6509119272232056, -0.9231566190719604, -0.24672865867614746, -0.9590042233467102, 0.14941932260990143, 0.34542226791381836, -1.0803346633911133, -0.14896726608276367, -0.31625398993492126], "has_smpl": 1}]
00097680.jpg	[{"center": [112, 112], "scale": 0.9, "2d_joints": [[131.4768940205016, 93.51373911989326, 1.0], [115.25514183908237, 84.06097876167885, 1.0], [105.88463862050534, 84.5854577099654, 1.0], [94.50168750399692, 93.26688698971554, 1.0], [78.98824452925486, 104.0501218235335, 1.0], [101.82265661888262, 105.35759085038991, 1.0], [92.17456645408996, 111.85755356515958, 1.0], [84.41599324868237, 115.98129828141303, 1.0], [78.9745503665487, 122.42578966938777, 1.0], [97.16411939007405, 119.14486485616035, 1.0], [86.62781285209445, 128.24283915772278, 1.0], [78.4159814180122, 134.7244447920884, 1.0], [73.84406513742165, 144.07088359327778, 1.0], [95.55246012157508, 127.12309263529436, 1.0], [85.40247158298146, 133.96378733581219, 1.0], [76.19598544219458, 140.8857994483108, 1.0], [69.26745710736786, 147.90199952067448, 1.0], [93.36893067968045, 131.40327586029886, 1.0], [84.57483726064683, 140.0324643606842, 1.0], [76.85251383221191, 147.21305270034102, 1.0], [72.10039976681327, 155.76313093744338, 1.0]], "has_2d_joints": 1, "3d_joints": [[0.0, 0.0, 0.0, 1.0], [-0.024261213839054108, -0.0162252988666296, 0.02711045742034912, 1.0], [-0.039469730108976364, -0.01723419316112995, 0.053165972232818604, 1.0], [-0.05885833874344826, -0.0036300960928201675, 0.06758838891983032, 1.0], [-0.0865418016910553, 0.014153124764561653, 0.08606594800949097, 1.0], [-0.04690279811620712, 0.016492487862706184, 0.08166682720184326, 1.0], [-0.06491195783019066, 0.027664942666888237, 0.10949259996414185, 1.0], [-0.08002666383981705, 0.03523060120642185, 0.1266663670539856, 1.0], [-0.0918632410466671, 0.04764816723763943, 0.14845114946365356, 1.0], [-0.0546533428132534, 0.04008699767291546, 0.07484656572341919, 1.0], [-0.07403890788555145, 0.05650989152491093, 0.0971076488494873, 1.0], [-0.0897793099284172, 0.06879407353699207, 0.11208593845367432, 1.0], [-0.09989191591739655, 0.08719734288752079, 0.1313825249671936, 1.0], [-0.05635898560285568, 0.0527185071259737, 0.05031561851501465, 1.0], [-0.07451490312814713, 0.06519179977476597, 0.07254713773727417, 1.0], [-0.09156686067581177, 0.07809770293533802, 0.08815103769302368, 1.0], [-0.10579437017440796, 0.09213296137750149, 0.10815316438674927, 1.0], [-0.05892663076519966, 0.0586834941059351, 0.029210448265075684, 1.0], [-0.0735909678041935, 0.07310966588556767, 0.03953909873962402, 1.0], [-0.08688651770353317, 0.08553999103605747, 0.04897654056549072, 1.0], [-0.09603031724691391, 0.10103580914437771, 0.062345683574676514, 1.0]], "has_3d_joints": 1, "hrnet_2d_joints": [[132.3263702392578, 93.36856079101562], [116.29960632324219, 82.95115661621094], [106.68354797363281, 84.5538330078125], [93.86213684082031, 93.36856079101562], [78.63671875, 102.984619140625], [101.87551879882812, 103.78594970703125], [91.4581298828125, 112.60067749023438], [84.24607849121094, 116.60736083984375], [77.03404235839844, 123.01806640625], [97.06748962402344, 118.21003723144531], [86.65010070800781, 127.02476501464844], [78.63671875, 133.4354705810547], [73.02734375, 140.6475067138672], [96.26615905761719, 127.02476501464844], [85.8487548828125, 135.03814697265625], [76.23269653320312, 140.6475067138672], [66.61663818359375, 148.660888671875], [92.25946044921875, 131.0314483642578], [84.24607849121094, 140.6475067138672], [75.43136596679688, 148.660888671875], [68.21931457519531, 155.07159423828125]], "has_hrnet_2d_joints": 1, "pose": [0.7129087448120117, 0.7157421708106995, -0.7928966283798218, -0.005629386752843857, -0.020847106352448463, -0.25697168707847595, 0.019605889916419983, 0.020119965076446533, -0.752727746963501, 0.016962876543402672, -0.16247829794883728, -0.47104501724243164, 0.2712077796459198, 0.07267540693283081, -0.38628798723220825, -0.0600123330950737, -0.04881877079606056, -0.7962555289268494, 0.037846919149160385, -0.04672650247812271, -0.49364858865737915, 0.5203770399093628, 0.0690668448805809, -0.5552831292152405, 0.21080641448497772, -0.20642486214637756, -0.3631074130535126, 0.3601369559764862, -0.027657518163323402, -0.5777040719985962, 0.28868335485458374, 0.05730121210217476, -0.4341995418071747, 0.1606927365064621, -0.2036343216896057, -0.8283606767654419, 0.13506746292114258, 0.09893530607223511, -0.45706236362457275, -0.007289777975529432, -0.26253533363342285, -0.17645134031772614, 0.07994092255830765, -0.23175597190856934, -0.04307592287659645, -0.06330021470785141, -0.042456887662410736, 0.09345488995313644], "betas": [-1.3561997413635254, -0.6509119272232056, -0.9231566190719604, -0.24672865867614746, -0.9590042233467102, 0.14941932260990143, 0.34542226791381836, -1.0803346633911133, -0.14896726608276367, -0.31625398993492126], "has_smpl": 1}]
00000001.jpg	[{"center": [112, 112], "scale": 0.9, "2d_joints": [[81.62960518011232, 99.80016600879698, 1.0], [100.31277173832873, 102.42256449377805, 1.0], [114.86725090037535, 96.74456639682919, 1.0], [126.98955872920064, 91.58670937700688, 1.0], [141.81239651296778, 81.89326972391666, 1.0], [123.47352615041214, 109.82821409356329, 1.0], [138.94487192750574, 114.795922133261, 1.0], [149.5965354289786, 118.86950768642409, 1.0], [161.72736269196852, 120.42790866355963, 1.0], [119.72848762300855, 116.92092162749611, 1.0], [132.08281958353479, 124.4210999387808, 1.0], [141.2873689887053, 130.9346451412283, 1.0], [152.52615236068522, 135.14340045251768, 1.0], [107.71775306442225, 121.81706376368717, 1.0], [118.18835055445355, 127.58821441134371, 1.0], [125.60824513438828, 133.31545760372785, 1.0], [134.49096949754863, 137.8440378197712, 1.0], [97.90354997669222, 125.39435001394598, 1.0], [102.63792725959155, 130.36349050963338, 1.0], [106.98819386288942, 134.509835564747, 1.0], [111.90165028110323, 136.04540158744703, 1.0]], "has_2d_joints": 1, "3d_joints": [[0.0, 0.0, 0.0, 1.0], [0.033852629363536835, 0.004566969349980354, 0.010974586009979248, 1.0], [0.060792841017246246, -0.006007818505167961, 0.012965679168701172, 1.0], [0.08316350728273392, -0.01542806625366211, 0.009567022323608398, 1.0], [0.11029832810163498, -0.033093396574258804, 0.005731523036956787, 1.0], [0.07582250982522964, 0.01844128593802452, -0.024867653846740723, 1.0], [0.10249500721693039, 0.027175351977348328, -0.03810006380081177, 1.0], [0.12040414661169052, 0.03416292369365692, -0.046520113945007324, 1.0], [0.1398821696639061, 0.03660588338971138, -0.06033414602279663, 1.0], [0.0688897892832756, 0.030839048326015472, -0.04246753454208374, 1.0], [0.08961760252714157, 0.04341994598507881, -0.05908852815628052, 1.0], [0.10454151779413223, 0.05402962118387222, -0.07063233852386475, 1.0], [0.12190798670053482, 0.06024835258722305, -0.08747285604476929, 1.0], [0.04810404032468796, 0.03920130804181099, -0.049094974994659424, 1.0], [0.06589784473180771, 0.04855846241116524, -0.0665135383605957, 1.0], [0.07790666073560715, 0.05744441598653793, -0.08323073387145996, 1.0], [0.09167780727148056, 0.06391149759292603, -0.10129773616790771, 1.0], [0.03126523643732071, 0.0453089214861393, -0.05094832181930542, 1.0], [0.03969242423772812, 0.053266335278749466, -0.06570333242416382, 1.0], [0.04719134420156479, 0.05951870232820511, -0.08106040954589844, 1.0], [0.05531696230173111, 0.06113629788160324, -0.09894633293151855, 1.0]], "has_3d_joints": 1, "hrnet_2d_joints": [[81.35951232910156, 99.5431900024414], [101.01042938232422, 102.64596557617188], [115.49005889892578, 96.44041442871094], [126.86690521240234, 91.26911926269531], [141.34652709960938, 81.9607925415039], [124.79838562011719, 109.88578033447266], [138.24375915527344, 115.05707550048828], [148.5863494873047, 119.1941146850586], [160.99745178222656, 120.2283706665039], [119.62709045410156, 117.12559509277344], [131.00393676757812, 125.39966583251953], [140.31227111816406, 130.57095336914062], [151.68911743164062, 135.74224853515625], [107.21598815917969, 120.2283706665039], [117.55857849121094, 127.46818542480469], [124.79838562011719, 133.67373657226562], [134.10671997070312, 138.84503173828125], [96.87339782714844, 125.39966583251953], [102.04469299316406, 129.5366973876953], [106.18172454833984, 134.70799255371094], [112.38728332519531, 136.77651977539062]], "has_hrnet_2d_joints": 1, "pose": [-0.9014209508895874, 1.053895354270935, -2.6953699588775635, -0.03639880195260048, 0.05864670127630234, -0.17538686096668243, -0.21043354272842407, -0.022174391895532608, -0.9959503412246704, 0.23630309104919434, -0.09559689462184906, -0.32826006412506104, 0.42249608039855957, 0.05860919877886772, -0.3604941964149475, -0.16278311610221863, -0.063439279794693, -0.7453210949897766, 0.024749839678406715, 0.06798909604549408, -0.5051641464233398, 1.0964094400405884, 0.008931203745305538, -0.5191686749458313, 0.008525431156158447, -0.33599910140037537, -0.6067270636558533, 0.2836563289165497, 0.02713022567331791, -0.4980885982513428, 0.506673276424408, -0.15417449176311493, -0.6301422119140625, 0.06203503906726837, -0.11711049824953079, -0.7701716423034668, 0.050527576357126236, -0.013224859721958637, -0.4671837389469147, -0.5535174012184143, 0.2984206974506378, -0.4680343568325043, -0.39115476608276367, -0.003134121187031269, 0.06346767395734787, -0.2528189420700073, 0.031957849860191345, -0.24168062210083008], "betas": [1.5550100803375244, -0.4465746581554413, -0.11943133920431137, 0.2884847819805145, -0.5283349752426147, -0.032234106212854385, -0.5999435186386108, 1.1581648588180542, 0.5470324158668518, 0.47968289256095886], "has_smpl": 1}]
00032561.jpg	[{"center": [112, 112], "scale": 0.9, "2d_joints": [[81.62960518011232, 99.80016600879698, 1.0], [100.31277173832873, 102.42256449377805, 1.0], [114.86725090037535, 96.74456639682919, 1.0], [126.98955872920064, 91.58670937700688, 1.0], [141.81239651296778, 81.89326972391666, 1.0], [123.47352615041214, 109.82821409356329, 1.0], [138.94487192750574, 114.795922133261, 1.0], [149.5965354289786, 118.86950768642409, 1.0], [161.72736269196852, 120.42790866355963, 1.0], [119.72848762300855, 116.92092162749611, 1.0], [132.08281958353479, 124.4210999387808, 1.0], [141.2873689887053, 130.9346451412283, 1.0], [152.52615236068522, 135.14340045251768, 1.0], [107.71775306442225, 121.81706376368717, 1.0], [118.18835055445355, 127.58821441134371, 1.0], [125.60824513438828, 133.31545760372785, 1.0], [134.49096949754863, 137.8440378197712, 1.0], [97.90354997669222, 125.39435001394598, 1.0], [102.63792725959155, 130.36349050963338, 1.0], [106.98819386288942, 134.509835564747, 1.0], [111.90165028110323, 136.04540158744703, 1.0]], "has_2d_joints": 1, "3d_joints": [[0.0, 0.0, 0.0, 1.0], [0.033852629363536835, 0.004566969349980354, 0.010974586009979248, 1.0], [0.060792841017246246, -0.006007818505167961, 0.012965679168701172, 1.0], [0.08316350728273392, -0.01542806625366211, 0.009567022323608398, 1.0], [0.11029832810163498, -0.033093396574258804, 0.005731523036956787, 1.0], [0.07582250982522964, 0.01844128593802452, -0.024867653846740723, 1.0], [0.10249500721693039, 0.027175351977348328, -0.03810006380081177, 1.0], [0.12040414661169052, 0.03416292369365692, -0.046520113945007324, 1.0], [0.1398821696639061, 0.03660588338971138, -0.06033414602279663, 1.0], [0.0688897892832756, 0.030839048326015472, -0.04246753454208374, 1.0], [0.08961760252714157, 0.04341994598507881, -0.05908852815628052, 1.0], [0.10454151779413223, 0.05402962118387222, -0.07063233852386475, 1.0], [0.12190798670053482, 0.06024835258722305, -0.08747285604476929, 1.0], [0.04810404032468796, 0.03920130804181099, -0.049094974994659424, 1.0], [0.06589784473180771, 0.04855846241116524, -0.0665135383605957, 1.0], [0.07790666073560715, 0.05744441598653793, -0.08323073387145996, 1.0], [0.09167780727148056, 0.06391149759292603, -0.10129773616790771, 1.0], [0.03126523643732071, 0.0453089214861393, -0.05094832181930542, 1.0], [0.03969242423772812, 0.053266335278749466, -0.06570333242416382, 1.0], [0.04719134420156479, 0.05951870232820511, -0.08106040954589844, 1.0], [0.05531696230173111, 0.06113629788160324, -0.09894633293151855, 1.0]], "has_3d_joints": 1, "hrnet_2d_joints": [[82.39376831054688, 100.57745361328125], [102.04469299316406, 103.68022918701172], [116.5243148803711, 96.44041442871094], [126.86690521240234, 91.26911926269531], [141.34652709960938, 81.9607925415039], [124.79838562011719, 109.88578033447266], [139.27801513671875, 114.02281951904297], [149.62060546875, 118.15985107421875], [160.99745178222656, 120.2283706665039], [120.6613540649414, 117.12559509277344], [132.0382080078125, 125.39966583251953], [141.34652709960938, 130.57095336914062], [151.68911743164062, 133.67373657226562], [108.250244140625, 121.26262664794922], [118.59283447265625, 127.46818542480469], [125.83264923095703, 133.67373657226562], [135.14097595214844, 137.81077575683594], [97.90765380859375, 126.43392181396484], [102.04469299316406, 130.57095336914062], [107.21598815917969, 135.74224853515625], [112.38728332519531, 136.77651977539062]], "has_hrnet_2d_joints": 1, "pose": [-0.9014209508895874, 1.053895354270935, -2.6953699588775635, -0.03639880195260048, 0.05864670127630234, -0.17538686096668243, -0.21043354272842407, -0.022174391895532608, -0.9959503412246704, 0.23630309104919434, -0.09559689462184906, -0.32826006412506104, 0.42249608039855957, 0.05860919877886772, -0.3604941964149475, -0.16278311610221863, -0.063439279794693, -0.7453210949897766, 0.024749839678406715, 0.06798909604549408, -0.5051641464233398, 1.0964094400405884, 0.008931203745305538, -0.5191686749458313, 0.008525431156158447, -0.33599910140037537, -0.6067270636558533, 0.2836563289165497, 0.02713022567331791, -0.4980885982513428, 0.506673276424408, -0.15417449176311493, -0.6301422119140625, 0.06203503906726837, -0.11711049824953079, -0.7701716423034668, 0.050527576357126236, -0.013224859721958637, -0.4671837389469147, -0.5535174012184143, 0.2984206974506378, -0.4680343568325043, -0.39115476608276367, -0.003134121187031269, 0.06346767395734787, -0.2528189420700073, 0.031957849860191345, -0.24168062210083008], "betas": [1.5550100803375244, -0.4465746581554413, -0.11943133920431137, 0.2884847819805145, -0.5283349752426147, -0.032234106212854385, -0.5999435186386108, 1.1581648588180542, 0.5470324158668518, 0.47968289256095886], "has_smpl": 1}]
00065121.jpg	[{"center": [112, 112], "scale": 0.9, "2d_joints": [[81.62960518011232, 99.80016600879698, 1.0], [100.31277173832873, 102.42256449377805, 1.0], [114.86725090037535, 96.74456639682919, 1.0], [126.98955872920064, 91.58670937700688, 1.0], [141.81239651296778, 81.89326972391666, 1.0], [123.47352615041214, 109.82821409356329, 1.0], [138.94487192750574, 114.795922133261, 1.0], [149.5965354289786, 118.86950768642409, 1.0], [161.72736269196852, 120.42790866355963, 1.0], [119.72848762300855, 116.92092162749611, 1.0], [132.08281958353479, 124.4210999387808, 1.0], [141.2873689887053, 130.9346451412283, 1.0], [152.52615236068522, 135.14340045251768, 1.0], [107.71775306442225, 121.81706376368717, 1.0], [118.18835055445355, 127.58821441134371, 1.0], [125.60824513438828, 133.31545760372785, 1.0], [134.49096949754863, 137.8440378197712, 1.0], [97.90354997669222, 125.39435001394598, 1.0], [102.63792725959155, 130.36349050963338, 1.0], [106.98819386288942, 134.509835564747, 1.0], [111.90165028110323, 136.04540158744703, 1.0]], "has_2d_joints": 1, "3d_joints": [[0.0, 0.0, 0.0, 1.0], [0.033852629363536835, 0.004566969349980354, 0.010974586009979248, 1.0], [0.060792841017246246, -0.006007818505167961, 0.012965679168701172, 1.0], [0.08316350728273392, -0.01542806625366211, 0.009567022323608398, 1.0], [0.11029832810163498, -0.033093396574258804, 0.005731523036956787, 1.0], [0.07582250982522964, 0.01844128593802452, -0.024867653846740723, 1.0], [0.10249500721693039, 0.027175351977348328, -0.03810006380081177, 1.0], [0.12040414661169052, 0.03416292369365692, -0.046520113945007324, 1.0], [0.1398821696639061, 0.03660588338971138, -0.06033414602279663, 1.0], [0.0688897892832756, 0.030839048326015472, -0.04246753454208374, 1.0], [0.08961760252714157, 0.04341994598507881, -0.05908852815628052, 1.0], [0.10454151779413223, 0.05402962118387222, -0.07063233852386475, 1.0], [0.12190798670053482, 0.06024835258722305, -0.08747285604476929, 1.0], [0.04810404032468796, 0.03920130804181099, -0.049094974994659424, 1.0], [0.06589784473180771, 0.04855846241116524, -0.0665135383605957, 1.0], [0.07790666073560715, 0.05744441598653793, -0.08323073387145996, 1.0], [0.09167780727148056, 0.06391149759292603, -0.10129773616790771, 1.0], [0.03126523643732071, 0.0453089214861393, -0.05094832181930542, 1.0], [0.03969242423772812, 0.053266335278749466, -0.06570333242416382, 1.0], [0.04719134420156479, 0.05951870232820511, -0.08106040954589844, 1.0], [0.05531696230173111, 0.06113629788160324, -0.09894633293151855, 1.0]], "has_3d_joints": 1, "hrnet_2d_joints": [[81.35951232910156, 99.5431900024414], [101.01042938232422, 102.64596557617188], [115.49005889892578, 96.44041442871094], [126.86690521240234, 92.30338287353516], [141.34652709960938, 82.99504852294922], [124.79838562011719, 108.85152435302734], [139.27801513671875, 114.02281951904297], [149.62060546875, 118.15985107421875], [162.03170776367188, 119.1941146850586], [120.6613540649414, 117.12559509277344], [133.0724639892578, 125.39966583251953], [141.34652709960938, 130.57095336914062], [151.68911743164062, 134.70799255371094], [107.21598815917969, 121.26262664794922], [118.59283447265625, 127.46818542480469], [126.86690521240234, 133.67373657226562], [135.14097595214844, 137.81077575683594], [96.87339782714844, 125.39966583251953], [102.04469299316406, 129.5366973876953], [107.21598815917969, 132.6394805908203], [112.38728332519531, 134.70799255371094]], "has_hrnet_2d_joints": 1, "pose": [-0.9014209508895874, 1.053895354270935, -2.6953699588775635, -0.03639880195260048, 0.05864670127630234, -0.17538686096668243, -0.21043354272842407, -0.022174391895532608, -0.9959503412246704, 0.23630309104919434, -0.09559689462184906, -0.32826006412506104, 0.42249608039855957, 0.05860919877886772, -0.3604941964149475, -0.16278311610221863, -0.063439279794693, -0.7453210949897766, 0.024749839678406715, 0.06798909604549408, -0.5051641464233398, 1.0964094400405884, 0.008931203745305538, -0.5191686749458313, 0.008525431156158447, -0.33599910140037537, -0.6067270636558533, 0.2836563289165497, 0.02713022567331791, -0.4980885982513428, 0.506673276424408, -0.15417449176311493, -0.6301422119140625, 0.06203503906726837, -0.11711049824953079, -0.7701716423034668, 0.050527576357126236, -0.013224859721958637, -0.4671837389469147, -0.5535174012184143, 0.2984206974506378, -0.4680343568325043, -0.39115476608276367, -0.003134121187031269, 0.06346767395734787, -0.2528189420700073, 0.031957849860191345, -0.24168062210083008], "betas": [1.5550100803375244, -0.4465746581554413, -0.11943133920431137, 0.2884847819805145, -0.5283349752426147, -0.032234106212854385, -0.5999435186386108, 1.1581648588180542, 0.5470324158668518, 0.47968289256095886], "has_smpl": 1}]
00097681.jpg	[{"center": [112, 112], "scale": 0.9, "2d_joints": [[81.62960518011232, 99.80016600879698, 1.0], [100.31277173832873, 102.42256449377805, 1.0], [114.86725090037535, 96.74456639682919, 1.0], [126.98955872920064, 91.58670937700688, 1.0], [141.81239651296778, 81.89326972391666, 1.0], [123.47352615041214, 109.82821409356329, 1.0], [138.94487192750574, 114.795922133261, 1.0], [149.5965354289786, 118.86950768642409, 1.0], [161.72736269196852, 120.42790866355963, 1.0], [119.72848762300855, 116.92092162749611, 1.0], [132.08281958353479, 124.4210999387808, 1.0], [141.2873689887053, 130.9346451412283, 1.0], [152.52615236068522, 135.14340045251768, 1.0], [107.71775306442225, 121.81706376368717, 1.0], [118.18835055445355, 127.58821441134371, 1.0], [125.60824513438828, 133.31545760372785, 1.0], [134.49096949754863, 137.8440378197712, 1.0], [97.90354997669222, 125.39435001394598, 1.0], [102.63792725959155, 130.36349050963338, 1.0], [106.98819386288942, 134.509835564747, 1.0], [111.90165028110323, 136.04540158744703, 1.0]], "has_2d_joints": 1, "3d_joints": [[0.0, 0.0, 0.0, 1.0], [0.033852629363536835, 0.004566969349980354, 0.010974586009979248, 1.0], [0.060792841017246246, -0.006007818505167961, 0.012965679168701172, 1.0], [0.08316350728273392, -0.01542806625366211, 0.009567022323608398, 1.0], [0.11029832810163498, -0.033093396574258804, 0.005731523036956787, 1.0], [0.07582250982522964, 0.01844128593802452, -0.024867653846740723, 1.0], [0.10249500721693039, 0.027175351977348328, -0.03810006380081177, 1.0], [0.12040414661169052, 0.03416292369365692, -0.046520113945007324, 1.0], [0.1398821696639061, 0.03660588338971138, -0.06033414602279663, 1.0], [0.0688897892832756, 0.030839048326015472, -0.04246753454208374, 1.0], [0.08961760252714157, 0.04341994598507881, -0.05908852815628052, 1.0], [0.10454151779413223, 0.05402962118387222, -0.07063233852386475, 1.0], [0.12190798670053482, 0.06024835258722305, -0.08747285604476929, 1.0], [0.04810404032468796, 0.03920130804181099, -0.049094974994659424, 1.0], [0.06589784473180771, 0.04855846241116524, -0.0665135383605957, 1.0], [0.07790666073560715, 0.05744441598653793, -0.08323073387145996, 1.0], [0.09167780727148056, 0.06391149759292603, -0.10129773616790771, 1.0], [0.03126523643732071, 0.0453089214861393, -0.05094832181930542, 1.0], [0.03969242423772812, 0.053266335278749466, -0.06570333242416382, 1.0], [0.04719134420156479, 0.05951870232820511, -0.08106040954589844, 1.0], [0.05531696230173111, 0.06113629788160324, -0.09894633293151855, 1.0]], "has_3d_joints": 1, "hrnet_2d_joints": [[81.35951232910156, 98.5089340209961], [101.01042938232422, 100.57745361328125], [115.49005889892578, 95.40615844726562], [126.86690521240234, 91.26911926269531], [141.34652709960938, 82.99504852294922], [124.79838562011719, 108.85152435302734], [139.27801513671875, 115.05707550048828], [149.62060546875, 118.15985107421875], [163.0659637451172, 119.1941146850586], [120.6613540649414, 117.12559509277344], [133.0724639892578, 125.39966583251953], [142.3807830810547, 130.57095336914062], [152.72337341308594, 135.74224853515625], [108.250244140625, 121.26262664794922], [118.59283447265625, 127.46818542480469], [126.86690521240234, 133.67373657226562], [135.14097595214844, 137.81077575683594], [96.87339782714844, 125.39966583251953], [103.07894897460938, 129.5366973876953], [107.21598815917969, 132.6394805908203], [112.38728332519531, 134.70799255371094]], "has_hrnet_2d_joints": 1, "pose": [-0.9014209508895874, 1.053895354270935, -2.6953699588775635, -0.03639880195260048, 0.05864670127630234, -0.17538686096668243, -0.21043354272842407, -0.022174391895532608, -0.9959503412246704, 0.23630309104919434, -0.09559689462184906, -0.32826006412506104, 0.42249608039855957, 0.05860919877886772, -0.3604941964149475, -0.16278311610221863, -0.063439279794693, -0.7453210949897766, 0.024749839678406715, 0.06798909604549408, -0.5051641464233398, 1.0964094400405884, 0.008931203745305538, -0.5191686749458313, 0.008525431156158447, -0.33599910140037537, -0.6067270636558533, 0.2836563289165497, 0.02713022567331791, -0.4980885982513428, 0.506673276424408, -0.15417449176311493, -0.6301422119140625, 0.06203503906726837, -0.11711049824953079, -0.7701716423034668, 0.050527576357126236, -0.013224859721958637, -0.4671837389469147, -0.5535174012184143, 0.2984206974506378, -0.4680343568325043, -0.39115476608276367, -0.003134121187031269, 0.06346767395734787, -0.2528189420700073, 0.031957849860191345, -0.24168062210083008], "betas": [1.5550100803375244, -0.4465746581554413, -0.11943133920431137, 0.2884847819805145, -0.5283349752426147, -0.032234106212854385, -0.5999435186386108, 1.1581648588180542, 0.5470324158668518, 0.47968289256095886], "has_smpl": 1}]
00000002.jpg	[{"center": [112, 112], "scale": 0.9, "2d_joints": [[74.37488853618254, 141.41403170110513, 1.0], [66.89556842395422, 144.7943207245169, 1.0], [61.18831242413989, 147.79017881121632, 1.0], [70.29133050840531, 153.5432615752889, 1.0], [91.39523821261871, 164.97391027758687, 1.0], [86.99744922941856, 99.2700284119148, 1.0], [105.11317568985774, 90.12989257536906, 1.0], [115.18275606072534, 97.47602634543829, 1.0], [120.53490781536428, 113.32809411744917, 1.0], [108.51722574675021, 93.61413087933789, 1.0], [125.71771007777214, 92.24299708803603, 1.0], [129.53537551886785, 103.9028902870947, 1.0], [128.23713758000255, 119.51046500960791, 1.0], [124.34430437928127, 101.60013759201259, 1.0], [133.61809421876478, 97.78606509603571, 1.0], [140.8495414602217, 107.5168012804785, 1.0], [140.54621354529604, 123.44362220498516, 1.0], [134.93909510347595, 114.70095440201632, 1.0], [141.6733567488956, 111.91255423490418, 1.0], [144.58541347071971, 113.85847129773899, 1.0], [149.2431927515332, 115.75369904354115, 1.0]], "has_2d_joints": 1, "3d_joints": [[0.0, 0.0, 0.0, 1.0], [-0.010374456644058228, 0.005426784977316856, 0.04007697105407715, 1.0], [-0.018821552395820618, 0.010263552889227867, 0.06978088617324829, 1.0], [-0.009893782436847687, 0.01816190592944622, 0.09220504760742188, 1.0], [0.014148056507110596, 0.03294509835541248, 0.11070239543914795, 1.0], [0.009717851877212524, -0.045075273141264915, 0.08859765529632568, 1.0], [0.030555300414562225, -0.05628356523811817, 0.1070067286491394, 1.0], [0.042584098875522614, -0.04786370508372784, 0.12141460180282593, 1.0], [0.04928608983755112, -0.028652401641011238, 0.13966530561447144, 1.0], [0.03472395986318588, -0.0514818150550127, 0.08270382881164551, 1.0], [0.05499895662069321, -0.05372779257595539, 0.10547739267349243, 1.0], [0.059930093586444855, -0.04008556716144085, 0.12108981609344482, 1.0], [0.05883144587278366, -0.02099567838013172, 0.14067518711090088, 1.0], [0.052653707563877106, -0.04202536679804325, 0.0662187933921814, 1.0], [0.06396519392728806, -0.0468901377171278, 0.0929645299911499, 1.0], [0.07322186976671219, -0.0356561578810215, 0.11211013793945312, 1.0], [0.073652483522892, -0.016291527077555656, 0.1308916211128235, 1.0], [0.06422687321901321, -0.02729210816323757, 0.0552484393119812, 1.0], [0.07258359342813492, -0.030394593253731728, 0.07513946294784546, 1.0], [0.07682252675294876, -0.028121663257479668, 0.09416478872299194, 1.0], [0.08343697339296341, -0.025787541642785072, 0.11540400981903076, 1.0]], "has_3d_joints": 1, "hrnet_2d_joints": [[70.01079559326172, 141.27525329589844], [65.4593276977539, 143.55099487304688], [60.90785598754883, 150.37818908691406], [71.14866638183594, 156.06753540039062], [90.4924087524414, 164.03260803222656], [88.2166748046875, 100.31202697753906], [105.28468322753906, 90.07122039794922], [109.83615112304688, 100.31202697753906], [116.66336059570312, 109.41496276855469], [108.69828796386719, 94.62268829345703], [123.49056243896484, 91.20909118652344], [128.0420379638672, 104.86349487304688], [131.4556427001953, 118.51790618896484], [125.76629638671875, 103.72563171386719], [134.86923217773438, 101.44989013671875], [140.55857849121094, 109.41496276855469], [139.4207000732422, 121.93150329589844], [136.00711059570312, 117.38003540039062], [143.97218322753906, 112.82856750488281], [147.38577270507812, 115.10430145263672], [148.52365112304688, 118.51790618896484]], "has_hrnet_2d_joints": 1, "pose": [-1.554988145828247, -0.4191359281539917, 2.143815755844116, -0.06225750967860222, -0.6250890493392944, -0.27000778913497925, 0.15134282410144806, 0.233279749751091, 0.21629701554775238, -0.15304683148860931, 0.15778106451034546, 0.06285540014505386, -0.004410863388329744, -0.3161984086036682, -0.10122548788785934, -0.19840894639492035, 0.21272510290145874, 0.20001043379306793, -0.012459059245884418, 0.10097537189722061, 0.056004226207733154, -0.20497600734233856, 0.3583621084690094, -0.351367324590683, 0.06392209976911545, -0.1792822629213333, -0.23580779135227203, 0.3510429561138153, -0.27720773220062256, -0.34252122044563293, 0.05712423101067543, 0.11033139377832413, -0.13662582635879517, 0.011843237094581127, -0.2942821681499481, -0.20734424889087677, -0.0310676172375679, 0.35053032636642456, 0.14401674270629883, 0.12189365178346634, 0.27765998244285583, 0.156825453042984, 0.033596470952034, -0.03999815881252289, -0.006430144887417555, 0.4645094573497772, -0.2887008786201477, 0.6274697184562683], "betas": [-1.9321094751358032, 0.7137506008148193, -0.787898063659668, -0.4133564233779907, 0.5951671004295349, -0.19471001625061035, 1.241978406906128, -2.3695123195648193, 0.08379581570625305, -1.3159387111663818], "has_smpl": 1}]
00032562.jpg	[{"center": [112, 112], "scale": 0.9, "2d_joints": [[74.37488853618254, 141.41403170110513, 1.0], [66.89556842395422, 144.7943207245169, 1.0], [61.18831242413989, 147.79017881121632, 1.0], [70.29133050840531, 153.5432615752889, 1.0], [91.39523821261871, 164.97391027758687, 1.0], [86.99744922941856, 99.2700284119148, 1.0], [105.11317568985774, 90.12989257536906, 1.0], [115.18275606072534, 97.47602634543829, 1.0], [120.53490781536428, 113.32809411744917, 1.0], [108.51722574675021, 93.61413087933789, 1.0], [125.71771007777214, 92.24299708803603, 1.0], [129.53537551886785, 103.9028902870947, 1.0], [128.23713758000255, 119.51046500960791, 1.0], [124.34430437928127, 101.60013759201259, 1.0], [133.61809421876478, 97.78606509603571, 1.0], [140.8495414602217, 107.5168012804785, 1.0], [140.54621354529604, 123.44362220498516, 1.0], [134.93909510347595, 114.70095440201632, 1.0], [141.6733567488956, 111.91255423490418, 1.0], [144.58541347071971, 113.85847129773899, 1.0], [149.2431927515332, 115.75369904354115, 1.0]], "has_2d_joints": 1, "3d_joints": [[0.0, 0.0, 0.0, 1.0], [-0.010374456644058228, 0.005426784977316856, 0.04007697105407715, 1.0], [-0.018821552395820618, 0.010263552889227867, 0.06978088617324829, 1.0], [-0.009893782436847687, 0.01816190592944622, 0.09220504760742188, 1.0], [0.014148056507110596, 0.03294509835541248, 0.11070239543914795, 1.0], [0.009717851877212524, -0.045075273141264915, 0.08859765529632568, 1.0], [0.030555300414562225, -0.05628356523811817, 0.1070067286491394, 1.0], [0.042584098875522614, -0.04786370508372784, 0.12141460180282593, 1.0], [0.04928608983755112, -0.028652401641011238, 0.13966530561447144, 1.0], [0.03472395986318588, -0.0514818150550127, 0.08270382881164551, 1.0], [0.05499895662069321, -0.05372779257595539, 0.10547739267349243, 1.0], [0.059930093586444855, -0.04008556716144085, 0.12108981609344482, 1.0], [0.05883144587278366, -0.02099567838013172, 0.14067518711090088, 1.0], [0.052653707563877106, -0.04202536679804325, 0.0662187933921814, 1.0], [0.06396519392728806, -0.0468901377171278, 0.0929645299911499, 1.0], [0.07322186976671219, -0.0356561578810215, 0.11211013793945312, 1.0], [0.073652483522892, -0.016291527077555656, 0.1308916211128235, 1.0], [0.06422687321901321, -0.02729210816323757, 0.0552484393119812, 1.0], [0.07258359342813492, -0.030394593253731728, 0.07513946294784546, 1.0], [0.07682252675294876, -0.028121663257479668, 0.09416478872299194, 1.0], [0.08343697339296341, -0.025787541642785072, 0.11540400981903076, 1.0]], "has_3d_joints": 1, "hrnet_2d_joints": [[72.28652954101562, 141.27525329589844], [66.5971908569336, 143.55099487304688], [65.4593276977539, 150.37818908691406], [73.42440032958984, 156.06753540039062], [91.63027954101562, 165.17047119140625], [88.2166748046875, 99.17415618896484], [104.14682006835938, 90.07122039794922], [108.69828796386719, 100.31202697753906], [116.66336059570312, 109.41496276855469], [108.69828796386719, 94.62268829345703], [123.49056243896484, 91.20909118652344], [129.17990112304688, 103.72563171386719], [131.4556427001953, 118.51790618896484], [125.76629638671875, 102.58776092529297], [134.86923217773438, 99.17415618896484], [139.4207000732422, 107.13922882080078], [139.4207000732422, 118.51790618896484], [137.1449737548828, 116.24217224121094], [143.97218322753906, 111.69070434570312], [147.38577270507812, 115.10430145263672], [147.38577270507812, 118.51790618896484]], "has_hrnet_2d_joints": 1, "pose": [-1.554988145828247, -0.4191359281539917, 2.143815755844116, -0.06225750967860222, -0.6250890493392944, -0.27000778913497925, 0.15134282410144806, 0.233279749751091, 0.21629701554775238, -0.15304683148860931, 0.15778106451034546, 0.06285540014505386, -0.004410863388329744, -0.3161984086036682, -0.10122548788785934, -0.19840894639492035, 0.21272510290145874, 0.20001043379306793, -0.012459059245884418, 0.10097537189722061, 0.056004226207733154, -0.20497600734233856, 0.3583621084690094, -0.351367324590683, 0.06392209976911545, -0.1792822629213333, -0.23580779135227203, 0.3510429561138153, -0.27720773220062256, -0.34252122044563293, 0.05712423101067543, 0.11033139377832413, -0.13662582635879517, 0.011843237094581127, -0.2942821681499481, -0.20734424889087677, -0.0310676172375679, 0.35053032636642456, 0.14401674270629883, 0.12189365178346634, 0.27765998244285583, 0.156825453042984, 0.033596470952034, -0.03999815881252289, -0.006430144887417555, 0.4645094573497772, -0.2887008786201477, 0.6274697184562683], "betas": [-1.9321094751358032, 0.7137506008148193, -0.787898063659668, -0.4133564233779907, 0.5951671004295349, -0.19471001625061035, 1.241978406906128, -2.3695123195648193, 0.08379581570625305, -1.3159387111663818], "has_smpl": 1}]
00065122.jpg	[{"center": [112, 112], "scale": 0.9, "2d_joints": [[74.37488853618254, 141.41403170110513, 1.0], [66.89556842395422, 144.7943207245169, 1.0], [61.18831242413989, 147.79017881121632, 1.0], [70.29133050840531, 153.5432615752889, 1.0], [91.39523821261871, 164.97391027758687, 1.0], [86.99744922941856, 99.2700284119148, 1.0], [105.11317568985774, 90.12989257536906, 1.0], [115.18275606072534, 97.47602634543829, 1.0], [120.53490781536428, 113.32809411744917, 1.0], [108.51722574675021, 93.61413087933789, 1.0], [125.71771007777214, 92.24299708803603, 1.0], [129.53537551886785, 103.9028902870947, 1.0], [128.23713758000255, 119.51046500960791, 1.0], [124.34430437928127, 101.60013759201259, 1.0], [133.61809421876478, 97.78606509603571, 1.0], [140.8495414602217, 107.5168012804785, 1.0], [140.54621354529604, 123.44362220498516, 1.0], [134.93909510347595, 114.70095440201632, 1.0], [141.6733567488956, 111.91255423490418, 1.0], [144.58541347071971, 113.85847129773899, 1.0], [149.2431927515332, 115.75369904354115, 1.0]], "has_2d_joints": 1, "3d_joints": [[0.0, 0.0, 0.0, 1.0], [-0.010374456644058228, 0.005426784977316856, 0.04007697105407715, 1.0], [-0.018821552395820618, 0.010263552889227867, 0.06978088617324829, 1.0], [-0.009893782436847687, 0.01816190592944622, 0.09220504760742188, 1.0], [0.014148056507110596, 0.03294509835541248, 0.11070239543914795, 1.0], [0.009717851877212524, -0.045075273141264915, 0.08859765529632568, 1.0], [0.030555300414562225, -0.05628356523811817, 0.1070067286491394, 1.0], [0.042584098875522614, -0.04786370508372784, 0.12141460180282593, 1.0], [0.04928608983755112, -0.028652401641011238, 0.13966530561447144, 1.0], [0.03472395986318588, -0.0514818150550127, 0.08270382881164551, 1.0], [0.05499895662069321, -0.05372779257595539, 0.10547739267349243, 1.0], [0.059930093586444855, -0.04008556716144085, 0.12108981609344482, 1.0], [0.05883144587278366, -0.02099567838013172, 0.14067518711090088, 1.0], [0.052653707563877106, -0.04202536679804325, 0.0662187933921814, 1.0], [0.06396519392728806, -0.0468901377171278, 0.0929645299911499, 1.0], [0.07322186976671219, -0.0356561578810215, 0.11211013793945312, 1.0], [0.073652483522892, -0.016291527077555656, 0.1308916211128235, 1.0], [0.06422687321901321, -0.02729210816323757, 0.0552484393119812, 1.0], [0.07258359342813492, -0.030394593253731728, 0.07513946294784546, 1.0], [0.07682252675294876, -0.028121663257479668, 0.09416478872299194, 1.0], [0.08343697339296341, -0.025787541642785072, 0.11540400981903076, 1.0]], "has_3d_joints": 1, "hrnet_2d_joints": [[72.28652954101562, 141.27525329589844], [66.5971908569336, 142.41311645507812], [64.32145690917969, 149.24032592773438], [72.28652954101562, 156.06753540039062], [91.63027954101562, 166.30833435058594], [88.2166748046875, 100.31202697753906], [104.14682006835938, 91.20909118652344], [107.56041717529297, 100.31202697753906], [116.66336059570312, 109.41496276855469], [107.56041717529297, 94.62268829345703], [123.49056243896484, 91.20909118652344], [126.90416717529297, 104.86349487304688], [126.90416717529297, 118.51790618896484], [125.76629638671875, 102.58776092529297], [134.86923217773438, 99.17415618896484], [140.55857849121094, 108.277099609375], [139.4207000732422, 118.51790618896484], [137.1449737548828, 116.24217224121094], [143.97218322753906, 111.69070434570312], [147.38577270507812, 115.10430145263672], [148.52365112304688, 118.51790618896484]], "has_hrnet_2d_joints": 1, "pose": [-1.554988145828247, -0.4191359281539917, 2.143815755844116, -0.06225750967860222, -0.6250890493392944, -0.27000778913497925, 0.15134282410144806, 0.233279749751091, 0.21629701554775238, -0.15304683148860931, 0.15778106451034546, 0.06285540014505386, -0.004410863388329744, -0.3161984086036682, -0.10122548788785934, -0.19840894639492035, 0.21272510290145874, 0.20001043379306793, -0.012459059245884418, 0.10097537189722061, 0.056004226207733154, -0.20497600734233856, 0.3583621084690094, -0.351367324590683, 0.06392209976911545, -0.1792822629213333, -0.23580779135227203, 0.3510429561138153, -0.27720773220062256, -0.34252122044563293, 0.05712423101067543, 0.11033139377832413, -0.13662582635879517, 0.011843237094581127, -0.2942821681499481, -0.20734424889087677, -0.0310676172375679, 0.35053032636642456, 0.14401674270629883, 0.12189365178346634, 0.27765998244285583, 0.156825453042984, 0.033596470952034, -0.03999815881252289, -0.006430144887417555, 0.4645094573497772, -0.2887008786201477, 0.6274697184562683], "betas": [-1.9321094751358032, 0.7137506008148193, -0.787898063659668, -0.4133564233779907, 0.5951671004295349, -0.19471001625061035, 1.241978406906128, -2.3695123195648193, 0.08379581570625305, -1.3159387111663818], "has_smpl": 1}]
00097682.jpg	[{"center": [112, 112], "scale": 0.9, "2d_joints": [[74.37488853618254, 141.41403170110513, 1.0], [66.89556842395422, 144.7943207245169, 1.0], [61.18831242413989, 147.79017881121632, 1.0], [70.29133050840531, 153.5432615752889, 1.0], [91.39523821261871, 164.97391027758687, 1.0], [86.99744922941856, 99.2700284119148, 1.0], [105.11317568985774, 90.12989257536906, 1.0], [115.18275606072534, 97.47602634543829, 1.0], [120.53490781536428, 113.32809411744917, 1.0], [108.51722574675021, 93.61413087933789, 1.0], [125.71771007777214, 92.24299708803603, 1.0], [129.53537551886785, 103.9028902870947, 1.0], [128.23713758000255, 119.51046500960791, 1.0], [124.34430437928127, 101.60013759201259, 1.0], [133.61809421876478, 97.78606509603571, 1.0], [140.8495414602217, 107.5168012804785, 1.0], [140.54621354529604, 123.44362220498516, 1.0], [134.93909510347595, 114.70095440201632, 1.0], [141.6733567488956, 111.91255423490418, 1.0], [144.58541347071971, 113.85847129773899, 1.0], [149.2431927515332, 115.75369904354115, 1.0]], "has_2d_joints": 1, "3d_joints": [[0.0, 0.0, 0.0, 1.0], [-0.010374456644058228, 0.005426784977316856, 0.04007697105407715, 1.0], [-0.018821552395820618, 0.010263552889227867, 0.06978088617324829, 1.0], [-0.009893782436847687, 0.01816190592944622, 0.09220504760742188, 1.0], [0.014148056507110596, 0.03294509835541248, 0.11070239543914795, 1.0], [0.009717851877212524, -0.045075273141264915, 0.08859765529632568, 1.0], [0.030555300414562225, -0.05628356523811817, 0.1070067286491394, 1.0], [0.042584098875522614, -0.04786370508372784, 0.12141460180282593, 1.0], [0.04928608983755112, -0.028652401641011238, 0.13966530561447144, 1.0], [0.03472395986318588, -0.0514818150550127, 0.08270382881164551, 1.0], [0.05499895662069321, -0.05372779257595539, 0.10547739267349243, 1.0], [0.059930093586444855, -0.04008556716144085, 0.12108981609344482, 1.0], [0.05883144587278366, -0.02099567838013172, 0.14067518711090088, 1.0], [0.052653707563877106, -0.04202536679804325, 0.0662187933921814, 1.0], [0.06396519392728806, -0.0468901377171278, 0.0929645299911499, 1.0], [0.07322186976671219, -0.0356561578810215, 0.11211013793945312, 1.0], [0.073652483522892, -0.016291527077555656, 0.1308916211128235, 1.0], [0.06422687321901321, -0.02729210816323757, 0.0552484393119812, 1.0], [0.07258359342813492, -0.030394593253731728, 0.07513946294784546, 1.0], [0.07682252675294876, -0.028121663257479668, 0.09416478872299194, 1.0], [0.08343697339296341, -0.025787541642785072, 0.11540400981903076, 1.0]], "has_3d_joints": 1, "hrnet_2d_joints": [[71.14866638183594, 141.27525329589844], [66.5971908569336, 143.55099487304688], [62.04572296142578, 149.24032592773438], [72.28652954101562, 156.06753540039062], [90.4924087524414, 166.30833435058594], [88.2166748046875, 100.31202697753906], [104.14682006835938, 91.20909118652344], [107.56041717529297, 100.31202697753906], [116.66336059570312, 109.41496276855469], [108.69828796386719, 93.48482513427734], [123.49056243896484, 91.20909118652344], [129.17990112304688, 103.72563171386719], [131.4556427001953, 117.38003540039062], [125.76629638671875, 102.58776092529297], [134.86923217773438, 98.03629302978516], [139.4207000732422, 107.13922882080078], [139.4207000732422, 118.51790618896484], [137.1449737548828, 116.24217224121094], [143.97218322753906, 111.69070434570312], [147.38577270507812, 115.10430145263672], [148.52365112304688, 118.51790618896484]], "has_hrnet_2d_joints": 1, "pose": [-1.554988145828247, -0.4191359281539917, 2.143815755844116, -0.06225750967860222, -0.6250890493392944, -0.27000778913497925, 0.15134282410144806, 0.233279749751091, 0.21629701554775238, -0.15304683148860931, 0.15778106451034546, 0.06285540014505386, -0.004410863388329744, -0.3161984086036682, -0.10122548788785934, -0.19840894639492035, 0.21272510290145874, 0.20001043379306793, -0.012459059245884418, 0.10097537189722061, 0.056004226207733154, -0.20497600734233856, 0.3583621084690094, -0.351367324590683, 0.06392209976911545, -0.1792822629213333, -0.23580779135227203, 0.3510429561138153, -0.27720773220062256, -0.34252122044563293, 0.05712423101067543, 0.11033139377832413, -0.13662582635879517, 0.011843237094581127, -0.2942821681499481, -0.20734424889087677, -0.0310676172375679, 0.35053032636642456, 0.14401674270629883, 0.12189365178346634, 0.27765998244285583, 0.156825453042984, 0.033596470952034, -0.03999815881252289, -0.006430144887417555, 0.4645094573497772, -0.2887008786201477, 0.6274697184562683], "betas": [-1.9321094751358032, 0.7137506008148193, -0.787898063659668, -0.4133564233779907, 0.5951671004295349, -0.19471001625061035, 1.241978406906128, -2.3695123195648193, 0.08379581570625305, -1.3159387111663818], "has_smpl": 1}]
00000003.jpg	[{"center": [112, 112], "scale": 0.9, "2d_joints": [[132.4226619609414, 145.871068485765, 1.0], [114.90451568736309, 137.7673368419877, 1.0], [102.40032100216892, 132.87984610716634, 1.0], [92.28854725808418, 125.26809283192155, 1.0], [76.95810991320201, 116.79601912578491, 1.0], [118.98199077337411, 109.5527512131422, 1.0], [119.43337602042773, 91.13512508602352, 1.0], [116.96817546394853, 76.66503628584327, 1.0], [113.44258016899073, 60.18783352694728, 1.0], [125.28667713978506, 100.77081127561931, 1.0], [114.31881271995661, 88.71816852872121, 1.0], [103.83220404477747, 88.44426641163568, 1.0], [90.96031639830284, 93.9099711448542, 1.0], [130.88934519795058, 100.67688447001427, 1.0], [119.83992897905331, 94.89953637770435, 1.0], [111.66251482050329, 100.50395758554508, 1.0], [107.07809356867152, 113.0476323799462, 1.0], [132.70214660129693, 103.06649712903781, 1.0], [124.7280005651941, 101.00058151647417, 1.0], [118.4290860638902, 106.28792857665417, 1.0], [113.14100450015891, 116.03119490409817, 1.0]], "has_2d_joints": 1, "3d_joints": [[0.0, 0.0, 0.0, 1.0], [-0.027111370116472244, -0.013869602233171463, -0.020034730434417725, 1.0], [-0.045118298381567, -0.022355977445840836, -0.04179978370666504, 1.0], [-0.05865389481186867, -0.03382459469139576, -0.058599233627319336, 1.0], [-0.07803653925657272, -0.045786309987306595, -0.07768210768699646, 1.0], [-0.021729357540607452, -0.0555744469165802, -0.05593019723892212, 1.0], [-0.021455541253089905, -0.080183956772089, -0.07362020015716553, 1.0], [-0.024856656789779663, -0.09893334284424782, -0.08074885606765747, 1.0], [-0.029553383588790894, -0.1194421611726284, -0.090060293674469, 1.0], [-0.012497417628765106, -0.06818565353751183, -0.04254335165023804, 1.0], [-0.02808595448732376, -0.08572706952691078, -0.03688204288482666, 1.0], [-0.04338870942592621, -0.08671417459845543, -0.027523577213287354, 1.0], [-0.06277019903063774, -0.07915255799889565, -0.018201231956481934, 1.0], [-0.0034454911947250366, -0.0689622201025486, -0.02142232656478882, 1.0], [-0.019743114709854126, -0.07767880335450172, -0.018155395984649658, 1.0], [-0.031935542821884155, -0.06960428133606911, -0.00893789529800415, 1.0], [-0.03895397111773491, -0.05056827887892723, -0.0033090710639953613, 1.0], [0.0002736225724220276, -0.0658656470477581, -0.0028148889541625977, 1.0], [-0.01169700175523758, -0.06923892721533775, 0.0041790008544921875, 1.0], [-0.021380282938480377, -0.061106011271476746, 0.00878673791885376, 1.0], [-0.02964276820421219, -0.04587161913514137, 0.008462846279144287, 1.0]], "has_3d_joints": 1, "hrnet_2d_joints": [[131.31292724609375, 146.11705017089844], [113.87789154052734, 137.8146514892578], [101.4242935180664, 133.6634521484375], [91.46141052246094, 127.02152252197266], [77.34733581542969, 117.88888549804688], [117.1988525390625, 112.07720947265625], [115.53836822509766, 91.32121276855469], [113.04765319824219, 77.2071304321289], [109.72669219970703, 62.262813568115234], [123.01052856445312, 102.11432647705078], [115.53836822509766, 92.981689453125], [103.08477020263672, 87.17001342773438], [88.97069549560547, 86.33977508544922], [129.65245056152344, 101.28408813476562], [119.68956756591797, 97.13288879394531], [114.7081298828125, 104.60504913330078], [112.2174072265625, 117.88888549804688], [132.97340393066406, 103.77481079101562], [126.33148956298828, 99.62361145019531], [120.51980590820312, 106.2655258178711], [119.68956756591797, 116.22840881347656]], "has_hrnet_2d_joints": 1, "pose": [-1.5325504541397095, -1.7261371612548828, -0.016479603946208954, 0.15979601442813873, -0.12029007822275162, -0.36407941579818726, -0.17572925984859467, -0.03576039895415306, -0.6443229913711548, 0.28756025433540344, 0.0017761443741619587, -0.017254652455449104, -0.2130647748708725, -0.11855302006006241, 0.5620417594909668, -0.03197215124964714, -0.05575449392199516, 0.027661273255944252, 0.01427619531750679, 0.16638043522834778, 0.16623984277248383, -0.5469033122062683, 0.0006077323341742158, 0.8449140191078186, 0.13917915523052216, 0.04429835453629494, 0.16983479261398315, -0.5097587704658508, 0.15030869841575623, -0.03390388935804367, -0.13560740649700165, 0.14096146821975708, 0.7113991379737854, -0.27879056334495544, -0.005262651015073061, 0.17175668478012085, -0.1645202487707138, 0.02364499494433403, 0.32337433099746704, 0.15489377081394196, 0.19875702261924744, -0.45518022775650024, -0.6670246124267578, 0.08481679856777191, 0.3205448389053345, 0.3829425275325775, 0.016049547120928764, -0.3324693739414215], "betas": [1.6587276458740234, 0.32569459080696106, 0.6416150331497192, 0.22332385182380676, 0.039855387061834335, 0.010452259331941605, -0.6647441983222961, 1.2220951318740845, 0.04410293325781822, 0.5301434397697449], "has_smpl": 1}]
00032563.jpg	[{"center": [112, 112], "scale": 0.9, "2d_joints": [[132.4226619609414, 145.871068485765, 1.0], [114.90451568736309, 137.7673368419877, 1.0], [102.40032100216892, 132.87984610716634, 1.0], [92.28854725808418, 125.26809283192155, 1.0], [76.95810991320201, 116.79601912578491, 1.0], [118.98199077337411, 109.5527512131422, 1.0], [119.43337602042773, 91.13512508602352, 1.0], [116.96817546394853, 76.66503628584327, 1.0], [113.44258016899073, 60.18783352694728, 1.0], [125.28667713978506, 100.77081127561931, 1.0], [114.31881271995661, 88.71816852872121, 1.0], [103.83220404477747, 88.44426641163568, 1.0], [90.96031639830284, 93.9099711448542, 1.0], [130.88934519795058, 100.67688447001427, 1.0], [119.83992897905331, 94.89953637770435, 1.0], [111.66251482050329, 100.50395758554508, 1.0], [107.07809356867152, 113.0476323799462, 1.0], [132.70214660129693, 103.06649712903781, 1.0], [124.7280005651941, 101.00058151647417, 1.0], [118.4290860638902, 106.28792857665417, 1.0], [113.14100450015891, 116.03119490409817, 1.0]], "has_2d_joints": 1, "3d_joints": [[0.0, 0.0, 0.0, 1.0], [-0.027111370116472244, -0.013869602233171463, -0.020034730434417725, 1.0], [-0.045118298381567, -0.022355977445840836, -0.04179978370666504, 1.0], [-0.05865389481186867, -0.03382459469139576, -0.058599233627319336, 1.0], [-0.07803653925657272, -0.045786309987306595, -0.07768210768699646, 1.0], [-0.021729357540607452, -0.0555744469165802, -0.05593019723892212, 1.0], [-0.021455541253089905, -0.080183956772089, -0.07362020015716553, 1.0], [-0.024856656789779663, -0.09893334284424782, -0.08074885606765747, 1.0], [-0.029553383588790894, -0.1194421611726284, -0.090060293674469, 1.0], [-0.012497417628765106, -0.06818565353751183, -0.04254335165023804, 1.0], [-0.02808595448732376, -0.08572706952691078, -0.03688204288482666, 1.0], [-0.04338870942592621, -0.08671417459845543, -0.027523577213287354, 1.0], [-0.06277019903063774, -0.07915255799889565, -0.018201231956481934, 1.0], [-0.0034454911947250366, -0.0689622201025486, -0.02142232656478882, 1.0], [-0.019743114709854126, -0.07767880335450172, -0.018155395984649658, 1.0], [-0.031935542821884155, -0.06960428133606911, -0.00893789529800415, 1.0], [-0.03895397111773491, -0.05056827887892723, -0.0033090710639953613, 1.0], [0.0002736225724220276, -0.0658656470477581, -0.0028148889541625977, 1.0], [-0.01169700175523758, -0.06923892721533775, 0.0041790008544921875, 1.0], [-0.021380282938480377, -0.061106011271476746, 0.00878673791885376, 1.0], [-0.02964276820421219, -0.04587161913514137, 0.008462846279144287, 1.0]], "has_3d_joints": 1, "hrnet_2d_joints": [[132.97340393066406, 146.94728088378906], [115.53836822509766, 138.64488220214844], [103.08477020263672, 133.6634521484375], [92.29165649414062, 126.1912841796875], [77.34733581542969, 117.05864715576172], [117.1988525390625, 112.07720947265625], [116.36860656738281, 89.66072845458984], [115.53836822509766, 76.37689208984375], [113.04765319824219, 59.7720947265625], [125.50125122070312, 101.28408813476562], [115.53836822509766, 91.32121276855469], [103.08477020263672, 88.00025177001953], [93.12189483642578, 92.15145111083984], [130.48268127441406, 101.28408813476562], [119.68956756591797, 94.64217376708984], [113.04765319824219, 100.45384979248047], [108.06620788574219, 112.9074478149414], [132.97340393066406, 103.77481079101562], [126.33148956298828, 99.62361145019531], [119.68956756591797, 105.43528747558594], [119.68956756591797, 116.22840881347656]], "has_hrnet_2d_joints": 1, "pose": [-1.5325504541397095, -1.7261371612548828, -0.016479603946208954, 0.15979601442813873, -0.12029007822275162, -0.36407941579818726, -0.17572925984859467, -0.03576039895415306, -0.6443229913711548, 0.28756025433540344, 0.0017761443741619587, -0.017254652455449104, -0.2130647748708725, -0.11855302006006241, 0.5620417594909668, -0.03197215124964714, -0.05575449392199516, 0.027661273255944252, 0.01427619531750679, 0.16638043522834778, 0.16623984277248383, -0.5469033122062683, 0.0006077323341742158, 0.8449140191078186, 0.13917915523052216, 0.04429835453629494, 0.16983479261398315, -0.5097587704658508, 0.15030869841575623, -0.03390388935804367, -0.13560740649700165, 0.14096146821975708, 0.7113991379737854, -0.27879056334495544, -0.005262651015073061, 0.17175668478012085, -0.1645202487707138, 0.02364499494433403, 0.32337433099746704, 0.15489377081394196, 0.19875702261924744, -0.45518022775650024, -0.6670246124267578, 0.08481679856777191, 0.3205448389053345, 0.3829425275325775, 0.016049547120928764, -0.3324693739414215], "betas": [1.6587276458740234, 0.32569459080696106, 0.6416150331497192, 0.22332385182380676, 0.039855387061834335, 0.010452259331941605, -0.6647441983222961, 1.2220951318740845, 0.04410293325781822, 0.5301434397697449], "has_smpl": 1}]
00065123.jpg	[{"center": [112, 112], "scale": 0.9, "2d_joints": [[132.4226619609414, 145.871068485765, 1.0], [114.90451568736309, 137.7673368419877, 1.0], [102.40032100216892, 132.87984610716634, 1.0], [92.28854725808418, 125.26809283192155, 1.0], [76.95810991320201, 116.79601912578491, 1.0], [118.98199077337411, 109.5527512131422, 1.0], [119.43337602042773, 91.13512508602352, 1.0], [116.96817546394853, 76.66503628584327, 1.0], [113.44258016899073, 60.18783352694728, 1.0], [125.28667713978506, 100.77081127561931, 1.0], [114.31881271995661, 88.71816852872121, 1.0], [103.83220404477747, 88.44426641163568, 1.0], [90.96031639830284, 93.9099711448542, 1.0], [130.88934519795058, 100.67688447001427, 1.0], [119.83992897905331, 94.89953637770435, 1.0], [111.66251482050329, 100.50395758554508, 1.0], [107.07809356867152, 113.0476323799462, 1.0], [132.70214660129693, 103.06649712903781, 1.0], [124.7280005651941, 101.00058151647417, 1.0], [118.4290860638902, 106.28792857665417, 1.0], [113.14100450015891, 116.03119490409817, 1.0]], "has_2d_joints": 1, "3d_joints": [[0.0, 0.0, 0.0, 1.0], [-0.027111370116472244, -0.013869602233171463, -0.020034730434417725, 1.0], [-0.045118298381567, -0.022355977445840836, -0.04179978370666504, 1.0], [-0.05865389481186867, -0.03382459469139576, -0.058599233627319336, 1.0], [-0.07803653925657272, -0.045786309987306595, -0.07768210768699646, 1.0], [-0.021729357540607452, -0.0555744469165802, -0.05593019723892212, 1.0], [-0.021455541253089905, -0.080183956772089, -0.07362020015716553, 1.0], [-0.024856656789779663, -0.09893334284424782, -0.08074885606765747, 1.0], [-0.029553383588790894, -0.1194421611726284, -0.090060293674469, 1.0], [-0.012497417628765106, -0.06818565353751183, -0.04254335165023804, 1.0], [-0.02808595448732376, -0.08572706952691078, -0.03688204288482666, 1.0], [-0.04338870942592621, -0.08671417459845543, -0.027523577213287354, 1.0], [-0.06277019903063774, -0.07915255799889565, -0.018201231956481934, 1.0], [-0.0034454911947250366, -0.0689622201025486, -0.02142232656478882, 1.0], [-0.019743114709854126, -0.07767880335450172, -0.018155395984649658, 1.0], [-0.031935542821884155, -0.06960428133606911, -0.00893789529800415, 1.0], [-0.03895397111773491, -0.05056827887892723, -0.0033090710639953613, 1.0], [0.0002736225724220276, -0.0658656470477581, -0.0028148889541625977, 1.0], [-0.01169700175523758, -0.06923892721533775, 0.0041790008544921875, 1.0], [-0.021380282938480377, -0.061106011271476746, 0.00878673791885376, 1.0], [-0.02964276820421219, -0.04587161913514137, 0.008462846279144287, 1.0]], "has_3d_joints": 1, "hrnet_2d_joints": [[132.14317321777344, 146.94728088378906], [114.7081298828125, 138.64488220214844], [101.4242935180664, 133.6634521484375], [92.29165649414062, 126.1912841796875], [77.34733581542969, 117.05864715576172], [117.1988525390625, 112.07720947265625], [116.36860656738281, 89.66072845458984], [115.53836822509766, 76.37689208984375], [113.04765319824219, 59.7720947265625], [125.50125122070312, 101.28408813476562], [115.53836822509766, 90.49097442626953], [103.91500854492188, 88.00025177001953], [91.46141052246094, 88.83049011230469], [129.65245056152344, 101.28408813476562], [119.68956756591797, 94.64217376708984], [112.2174072265625, 100.45384979248047], [108.06620788574219, 112.9074478149414], [132.14317321777344, 102.94457244873047], [125.50125122070312, 99.62361145019531], [119.68956756591797, 105.43528747558594], [118.85932922363281, 116.22840881347656]], "has_hrnet_2d_joints": 1, "pose": [-1.5325504541397095, -1.7261371612548828, -0.016479603946208954, 0.15979601442813873, -0.12029007822275162, -0.36407941579818726, -0.17572925984859467, -0.03576039895415306, -0.6443229913711548, 0.28756025433540344, 0.0017761443741619587, -0.017254652455449104, -0.2130647748708725, -0.11855302006006241, 0.5620417594909668, -0.03197215124964714, -0.05575449392199516, 0.027661273255944252, 0.01427619531750679, 0.16638043522834778, 0.16623984277248383, -0.5469033122062683, 0.0006077323341742158, 0.8449140191078186, 0.13917915523052216, 0.04429835453629494, 0.16983479261398315, -0.5097587704658508, 0.15030869841575623, -0.03390388935804367, -0.13560740649700165, 0.14096146821975708, 0.7113991379737854, -0.27879056334495544, -0.005262651015073061, 0.17175668478012085, -0.1645202487707138, 0.02364499494433403, 0.32337433099746704, 0.15489377081394196, 0.19875702261924744, -0.45518022775650024, -0.6670246124267578, 0.08481679856777191, 0.3205448389053345, 0.3829425275325775, 0.016049547120928764, -0.3324693739414215], "betas": [1.6587276458740234, 0.32569459080696106, 0.6416150331497192, 0.22332385182380676, 0.039855387061834335, 0.010452259331941605, -0.6647441983222961, 1.2220951318740845, 0.04410293325781822, 0.5301434397697449], "has_smpl": 1}]
00097683.jpg	[{"center": [112, 112], "scale": 0.9, "2d_joints": [[132.4226619609414, 145.871068485765, 1.0], [114.90451568736309, 137.7673368419877, 1.0], [102.40032100216892, 132.87984610716634, 1.0], [92.28854725808418, 125.26809283192155, 1.0], [76.95810991320201, 116.79601912578491, 1.0], [118.98199077337411, 109.5527512131422, 1.0], [119.43337602042773, 91.13512508602352, 1.0], [116.96817546394853, 76.66503628584327, 1.0], [113.44258016899073, 60.18783352694728, 1.0], [125.28667713978506, 100.77081127561931, 1.0], [114.31881271995661, 88.71816852872121, 1.0], [103.83220404477747, 88.44426641163568, 1.0], [90.96031639830284, 93.9099711448542, 1.0], [130.88934519795058, 100.67688447001427, 1.0], [119.83992897905331, 94.89953637770435, 1.0], [111.66251482050329, 100.50395758554508, 1.0], [107.07809356867152, 113.0476323799462, 1.0], [132.70214660129693, 103.06649712903781, 1.0], [124.7280005651941, 101.00058151647417, 1.0], [118.4290860638902, 106.28792857665417, 1.0], [113.14100450015891, 116.03119490409817, 1.0]], "has_2d_joints": 1, "3d_joints": [[0.0, 0.0, 0.0, 1.0], [-0.027111370116472244, -0.013869602233171463, -0.020034730434417725, 1.0], [-0.045118298381567, -0.022355977445840836, -0.04179978370666504, 1.0], [-0.05865389481186867, -0.03382459469139576, -0.058599233627319336, 1.0], [-0.07803653925657272, -0.045786309987306595, -0.07768210768699646, 1.0], [-0.021729357540607452, -0.0555744469165802, -0.05593019723892212, 1.0], [-0.021455541253089905, -0.080183956772089, -0.07362020015716553, 1.0], [-0.024856656789779663, -0.09893334284424782, -0.08074885606765747, 1.0], [-0.029553383588790894, -0.1194421611726284, -0.090060293674469, 1.0], [-0.012497417628765106, -0.06818565353751183, -0.04254335165023804, 1.0], [-0.02808595448732376, -0.08572706952691078, -0.03688204288482666, 1.0], [-0.04338870942592621, -0.08671417459845543, -0.027523577213287354, 1.0], [-0.06277019903063774, -0.07915255799889565, -0.018201231956481934, 1.0], [-0.0034454911947250366, -0.0689622201025486, -0.02142232656478882, 1.0], [-0.019743114709854126, -0.07767880335450172, -0.018155395984649658, 1.0], [-0.031935542821884155, -0.06960428133606911, -0.00893789529800415, 1.0], [-0.03895397111773491, -0.05056827887892723, -0.0033090710639953613, 1.0], [0.0002736225724220276, -0.0658656470477581, -0.0028148889541625977, 1.0], [-0.01169700175523758, -0.06923892721533775, 0.0041790008544921875, 1.0], [-0.021380282938480377, -0.061106011271476746, 0.00878673791885376, 1.0], [-0.02964276820421219, -0.04587161913514137, 0.008462846279144287, 1.0]], "has_3d_joints": 1, "hrnet_2d_joints": [[132.97340393066406, 146.94728088378906], [114.7081298828125, 138.64488220214844], [101.4242935180664, 133.6634521484375], [92.29165649414062, 126.1912841796875], [77.34733581542969, 116.22840881347656], [117.1988525390625, 112.07720947265625], [116.36860656738281, 89.66072845458984], [115.53836822509766, 76.37689208984375], [113.04765319824219, 59.7720947265625], [125.50125122070312, 101.28408813476562], [115.53836822509766, 90.49097442626953], [103.91500854492188, 88.00025177001953], [91.46141052246094, 88.83049011230469], [129.65245056152344, 101.28408813476562], [119.68956756591797, 94.64217376708984], [112.2174072265625, 100.45384979248047], [108.06620788574219, 112.9074478149414], [132.14317321777344, 102.94457244873047], [125.50125122070312, 99.62361145019531], [119.68956756591797, 105.43528747558594], [118.85932922363281, 116.22840881347656]], "has_hrnet_2d_joints": 1, "pose": [-1.5325504541397095, -1.7261371612548828, -0.016479603946208954, 0.15979601442813873, -0.12029007822275162, -0.36407941579818726, -0.17572925984859467, -0.03576039895415306, -0.6443229913711548, 0.28756025433540344, 0.0017761443741619587, -0.017254652455449104, -0.2130647748708725, -0.11855302006006241, 0.5620417594909668, -0.03197215124964714, -0.05575449392199516, 0.027661273255944252, 0.01427619531750679, 0.16638043522834778, 0.16623984277248383, -0.5469033122062683, 0.0006077323341742158, 0.8449140191078186, 0.13917915523052216, 0.04429835453629494, 0.16983479261398315, -0.5097587704658508, 0.15030869841575623, -0.03390388935804367, -0.13560740649700165, 0.14096146821975708, 0.7113991379737854, -0.27879056334495544, -0.005262651015073061, 0.17175668478012085, -0.1645202487707138, 0.02364499494433403, 0.32337433099746704, 0.15489377081394196, 0.19875702261924744, -0.45518022775650024, -0.6670246124267578, 0.08481679856777191, 0.3205448389053345, 0.3829425275325775, 0.016049547120928764, -0.3324693739414215], "betas": [1.6587276458740234, 0.32569459080696106, 0.6416150331497192, 0.22332385182380676, 0.039855387061834335, 0.010452259331941605, -0.6647441983222961, 1.2220951318740845, 0.04410293325781822, 0.5301434397697449], "has_smpl": 1}]
00000004.jpg	[{"center": [112, 112], "scale": 0.9, "2d_joints": [[102.5913674056503, 150.98942643325032, 1.0], [121.8519184530031, 137.34840906100177, 1.0], [135.90485509812166, 126.59525123284823, 1.0], [139.78503945772877, 113.38492344075229, 1.0], [136.0875902544478, 95.87692968015735, 1.0], [128.58334853156185, 97.03129018764174, 1.0], [127.66055987444169, 79.90250472610036, 1.0], [128.40867572209228, 73.51667881796182, 1.0], [132.5288303014163, 69.60018433205434, 1.0], [114.48227570675178, 89.95019948584847, 1.0], [115.62412457266473, 74.04262094157527, 1.0], [117.65651670850679, 71.40740159366689, 1.0], [122.16000865905703, 73.33500484482235, 1.0], [99.30802684477983, 93.56640777158908, 1.0], [103.81403178824777, 78.59589181052993, 1.0], [106.33191876907506, 74.31788554719719, 1.0], [111.49842173948014, 77.83415356172215, 1.0], [89.10154245701109, 98.53096016558368, 1.0], [91.40066139934045, 87.34463378820968, 1.0], [95.49751279434373, 83.05267995249743, 1.0], [102.06034775271294, 81.44501397837004, 1.0]], "has_2d_joints": 1, "3d_joints": [[0.0, 0.0, 0.0, 1.0], [0.031233899295330048, -0.02297152578830719, -0.012916326522827148, 1.0], [0.05326863378286362, -0.04062579199671745, -0.02477121353149414, 1.0], [0.05850476771593094, -0.061611197888851166, -0.04098576307296753, 1.0], [0.05169407278299332, -0.08806982636451721, -0.06294775009155273, 1.0], [0.04285445064306259, -0.08856160193681717, 0.010601639747619629, 1.0], [0.041016362607479095, -0.11630679666996002, 0.0008540749549865723, 1.0], [0.04159025102853775, -0.1252346932888031, -0.01870518922805786, 1.0], [0.04704383760690689, -0.1291632279753685, -0.045781850814819336, 1.0], [0.019494973123073578, -0.1002889946103096, 0.010494232177734375, 1.0], [0.021278776228427887, -0.12551604211330414, -0.004132866859436035, 1.0], [0.024347074329853058, -0.12809714674949646, -0.024864494800567627, 1.0], [0.030949421226978302, -0.12300923466682434, -0.05079466104507446, 1.0], [-0.005420111119747162, -0.09398120641708374, 0.0020095109939575195, 1.0], [0.002145640552043915, -0.11778992414474487, -0.008830010890960693, 1.0], [0.006470486521720886, -0.12302665412425995, -0.030853748321533203, 1.0], [0.014619894325733185, -0.11578690260648727, -0.055530428886413574, 1.0], [-0.02150736004114151, -0.08546432852745056, -0.011829197406768799, 1.0], [-0.017349697649478912, -0.10294641554355621, -0.022692382335662842, 1.0], [-0.010359250009059906, -0.10892495512962341, -0.03705179691314697, 1.0], [0.00025391578674316406, -0.11027850210666656, -0.05569136142730713, 1.0]], "has_3d_joints": 1, "hrnet_2d_joints": [[105.66608428955078, 149.60426330566406], [123.79712677001953, 136.99136352539062], [137.19833374023438, 125.1667709350586], [139.56324768066406, 111.76556396484375], [136.4100341796875, 94.4228286743164], [127.73866271972656, 96.7877426147461], [128.52696228027344, 78.65670013427734], [128.52696228027344, 72.35025024414062], [131.68019104003906, 69.9853286743164], [113.54914855957031, 89.69298553466797], [115.9140625, 73.92686462402344], [117.49067687988281, 73.13855743408203], [122.22051239013672, 75.50347137451172], [99.35963439941406, 95.21113586425781], [103.30116271972656, 79.44500732421875], [106.45439147949219, 73.92686462402344], [111.9725341796875, 76.29177856445312], [89.11164855957031, 99.15266418457031], [91.47657012939453, 88.11637878417969], [95.41809844970703, 82.59822845458984], [102.51285552978516, 79.44500732421875]], "has_hrnet_2d_joints": 1, "pose": [0.8185643553733826, 1.292409062385559, 1.366109848022461, -0.02450244314968586, -0.48354557156562805, 0.12426269799470901, 0.17859891057014465, 0.1831817626953125, 0.1954774111509323, -0.09921865910291672, 0.11639831215143204, -0.1562003493309021, 0.05692658945918083, -0.06682291626930237, 0.17876988649368286, -0.07602634280920029, 0.03288264572620392, 0.19305634498596191, -0.03152887150645256, 0.0152034442871809, 0.16900715231895447, 0.037837330251932144, 0.30254167318344116, -0.060829177498817444, -0.1779702752828598, -0.12908461689949036, 0.05370883271098137, 0.2262251377105713, -0.046230118721723557, 0.06390464305877686, 0.1305265575647354, 0.14950305223464966, 0.041130974888801575, -0.04474189504981041, -0.18602877855300903, 0.10083416849374771, -0.04772244393825531, 0.23402139544487, 0.17587518692016602, 0.3348185122013092, 0.2046739012002945, 0.12039361894130707, 0.012636037543416023, 0.031208481639623642, -0.04380953311920166, 0.3102315068244934, -0.3333624005317688, 0.4575241804122925], "betas": [-1.9459130764007568, 0.7061166167259216, -0.8491336703300476, -0.4456540644168854, 0.6534978151321411, -0.11307952553033829, 1.366671085357666, -2.219226121902466, 0.44072800874710083, -1.0855395793914795], "has_smpl": 1}]
00032564.jpg	[{"center": [112, 112], "scale": 0.9, "2d_joints": [[102.5913674056503, 150.98942643325032, 1.0], [121.8519184530031, 137.34840906100177, 1.0], [135.90485509812166, 126.59525123284823, 1.0], [139.78503945772877, 113.38492344075229, 1.0], [136.0875902544478, 95.87692968015735, 1.0], [128.58334853156185, 97.03129018764174, 1.0], [127.66055987444169, 79.90250472610036, 1.0], [128.40867572209228, 73.51667881796182, 1.0], [132.5288303014163, 69.60018433205434, 1.0], [114.48227570675178, 89.95019948584847, 1.0], [115.62412457266473, 74.04262094157527, 1.0], [117.65651670850679, 71.40740159366689, 1.0], [122.16000865905703, 73.33500484482235, 1.0], [99.30802684477983, 93.56640777158908, 1.0], [103.81403178824777, 78.59589181052993, 1.0], [106.33191876907506, 74.31788554719719, 1.0], [111.49842173948014, 77.83415356172215, 1.0], [89.10154245701109, 98.53096016558368, 1.0], [91.40066139934045, 87.34463378820968, 1.0], [95.49751279434373, 83.05267995249743, 1.0], [102.06034775271294, 81.44501397837004, 1.0]], "has_2d_joints": 1, "3d_joints": [[0.0, 0.0, 0.0, 1.0], [0.031233899295330048, -0.02297152578830719, -0.012916326522827148, 1.0], [0.05326863378286362, -0.04062579199671745, -0.02477121353149414, 1.0], [0.05850476771593094, -0.061611197888851166, -0.04098576307296753, 1.0], [0.05169407278299332, -0.08806982636451721, -0.06294775009155273, 1.0], [0.04285445064306259, -0.08856160193681717, 0.010601639747619629, 1.0], [0.041016362607479095, -0.11630679666996002, 0.0008540749549865723, 1.0], [0.04159025102853775, -0.1252346932888031, -0.01870518922805786, 1.0], [0.04704383760690689, -0.1291632279753685, -0.045781850814819336, 1.0], [0.019494973123073578, -0.1002889946103096, 0.010494232177734375, 1.0], [0.021278776228427887, -0.12551604211330414, -0.004132866859436035, 1.0], [0.024347074329853058, -0.12809714674949646, -0.024864494800567627, 1.0], [0.030949421226978302, -0.12300923466682434, -0.05079466104507446, 1.0], [-0.005420111119747162, -0.09398120641708374, 0.0020095109939575195, 1.0], [0.002145640552043915, -0.11778992414474487, -0.008830010890960693, 1.0], [0.006470486521720886, -0.12302665412425995, -0.030853748321533203, 1.0], [0.014619894325733185, -0.11578690260648727, -0.055530428886413574, 1.0], [-0.02150736004114151, -0.08546432852745056, -0.011829197406768799, 1.0], [-0.017349697649478912, -0.10294641554355621, -0.022692382335662842, 1.0], [-0.010359250009059906, -0.10892495512962341, -0.03705179691314697, 1.0], [0.00025391578674316406, -0.11027850210666656, -0.05569136142730713, 1.0]], "has_3d_joints": 1, "hrnet_2d_joints": [[103.30116271972656, 150.392578125], [122.22051239013672, 139.35629272460938], [136.4100341796875, 125.955078125], [140.3515625, 113.34217834472656], [136.4100341796875, 94.4228286743164], [128.52696228027344, 95.21113586425781], [128.52696228027344, 78.65670013427734], [128.52696228027344, 72.35025024414062], [130.8918914794922, 69.197021484375], [115.1257553100586, 89.69298553466797], [116.7023696899414, 73.92686462402344], [117.49067687988281, 73.13855743408203], [122.22051239013672, 75.50347137451172], [99.35963439941406, 93.634521484375], [103.30116271972656, 78.65670013427734], [108.03099822998047, 73.92686462402344], [111.9725341796875, 77.08008575439453], [87.5350341796875, 98.3643569946289], [91.47657012939453, 87.32807159423828], [96.20640563964844, 81.80992126464844], [102.51285552978516, 79.44500732421875]], "has_hrnet_2d_joints": 1, "pose": [0.8185643553733826, 1.292409062385559, 1.366109848022461, -0.02450244314968586, -0.48354557156562805, 0.12426269799470901, 0.17859891057014465, 0.1831817626953125, 0.1954774111509323, -0.09921865910291672, 0.11639831215143204, -0.1562003493309021, 0.05692658945918083, -0.06682291626930237, 0.17876988649368286, -0.07602634280920029, 0.03288264572620392, 0.19305634498596191, -0.03152887150645256, 0.0152034442871809, 0.16900715231895447, 0.037837330251932144, 0.30254167318344116, -0.060829177498817444, -0.1779702752828598, -0.12908461689949036, 0.05370883271098137, 0.2262251377105713, -0.046230118721723557, 0.06390464305877686, 0.1305265575647354, 0.14950305223464966, 0.041130974888801575, -0.04474189504981041, -0.18602877855300903, 0.10083416849374771, -0.04772244393825531, 0.23402139544487, 0.17587518692016602, 0.3348185122013092, 0.2046739012002945, 0.12039361894130707, 0.012636037543416023, 0.031208481639623642, -0.04380953311920166, 0.3102315068244934, -0.3333624005317688, 0.4575241804122925], "betas": [-1.9459130764007568, 0.7061166167259216, -0.8491336703300476, -0.4456540644168854, 0.6534978151321411, -0.11307952553033829, 1.366671085357666, -2.219226121902466, 0.44072800874710083, -1.0855395793914795], "has_smpl": 1}]
00065124.jpg	[{"center": [112, 112], "scale": 0.9, "2d_joints": [[102.5913674056503, 150.98942643325032, 1.0], [121.8519184530031, 137.34840906100177, 1.0], [135.90485509812166, 126.59525123284823, 1.0], [139.78503945772877, 113.38492344075229, 1.0], [136.0875902544478, 95.87692968015735, 1.0], [128.58334853156185, 97.03129018764174, 1.0], [127.66055987444169, 79.90250472610036, 1.0], [128.40867572209228, 73.51667881796182, 1.0], [132.5288303014163, 69.60018433205434, 1.0], [114.48227570675178, 89.95019948584847, 1.0], [115.62412457266473, 74.04262094157527, 1.0], [117.65651670850679, 71.40740159366689, 1.0], [122.16000865905703, 73.33500484482235, 1.0], [99.30802684477983, 93.56640777158908, 1.0], [103.81403178824777, 78.59589181052993, 1.0], [106.33191876907506, 74.31788554719719, 1.0], [111.49842173948014, 77.83415356172215, 1.0], [89.10154245701109, 98.53096016558368, 1.0], [91.40066139934045, 87.34463378820968, 1.0], [95.49751279434373, 83.05267995249743, 1.0], [102.06034775271294, 81.44501397837004, 1.0]], "has_2d_joints": 1, "3d_joints": [[0.0, 0.0, 0.0, 1.0], [0.031233899295330048, -0.02297152578830719, -0.012916326522827148, 1.0], [0.05326863378286362, -0.04062579199671745, -0.02477121353149414, 1.0], [0.05850476771593094, -0.061611197888851166, -0.04098576307296753, 1.0], [0.05169407278299332, -0.08806982636451721, -0.06294775009155273, 1.0], [0.04285445064306259, -0.08856160193681717, 0.010601639747619629, 1.0], [0.041016362607479095, -0.11630679666996002, 0.0008540749549865723, 1.0], [0.04159025102853775, -0.1252346932888031, -0.01870518922805786, 1.0], [0.04704383760690689, -0.1291632279753685, -0.045781850814819336, 1.0], [0.019494973123073578, -0.1002889946103096, 0.010494232177734375, 1.0], [0.021278776228427887, -0.12551604211330414, -0.004132866859436035, 1.0], [0.024347074329853058, -0.12809714674949646, -0.024864494800567627, 1.0], [0.030949421226978302, -0.12300923466682434, -0.05079466104507446, 1.0], [-0.005420111119747162, -0.09398120641708374, 0.0020095109939575195, 1.0], [0.002145640552043915, -0.11778992414474487, -0.008830010890960693, 1.0], [0.006470486521720886, -0.12302665412425995, -0.030853748321533203, 1.0], [0.014619894325733185, -0.11578690260648727, -0.055530428886413574, 1.0], [-0.02150736004114151, -0.08546432852745056, -0.011829197406768799, 1.0], [-0.017349697649478912, -0.10294641554355621, -0.022692382335662842, 1.0], [-0.010359250009059906, -0.10892495512962341, -0.03705179691314697, 1.0], [0.00025391578674316406, -0.11027850210666656, -0.05569136142730713, 1.0]], "has_3d_joints": 1, "hrnet_2d_joints": [[104.08946990966797, 151.18087768554688], [123.00881958007812, 139.35629272460938], [136.4100341796875, 125.955078125], [140.3515625, 113.34217834472656], [137.19833374023438, 96.7877426147461], [129.31527709960938, 97.5760498046875], [128.52696228027344, 79.44500732421875], [128.52696228027344, 73.13855743408203], [131.68019104003906, 69.197021484375], [115.1257553100586, 90.48129272460938], [116.7023696899414, 74.71516418457031], [117.49067687988281, 73.13855743408203], [122.22051239013672, 74.71516418457031], [99.35963439941406, 95.21113586425781], [103.30116271972656, 78.65670013427734], [106.45439147949219, 73.92686462402344], [111.9725341796875, 76.29177856445312], [87.5350341796875, 99.15266418457031], [91.47657012939453, 88.11637878417969], [95.41809844970703, 82.59822845458984], [102.51285552978516, 79.44500732421875]], "has_hrnet_2d_joints": 1, "pose": [0.8185643553733826, 1.292409062385559, 1.366109848022461, -0.02450244314968586, -0.48354557156562805, 0.12426269799470901, 0.17859891057014465, 0.1831817626953125, 0.1954774111509323, -0.09921865910291672, 0.11639831215143204, -0.1562003493309021, 0.05692658945918083, -0.06682291626930237, 0.17876988649368286, -0.07602634280920029, 0.03288264572620392, 0.19305634498596191, -0.03152887150645256, 0.0152034442871809, 0.16900715231895447, 0.037837330251932144, 0.30254167318344116, -0.060829177498817444, -0.1779702752828598, -0.12908461689949036, 0.05370883271098137, 0.2262251377105713, -0.046230118721723557, 0.06390464305877686, 0.1305265575647354, 0.14950305223464966, 0.041130974888801575, -0.04474189504981041, -0.18602877855300903, 0.10083416849374771, -0.04772244393825531, 0.23402139544487, 0.17587518692016602, 0.3348185122013092, 0.2046739012002945, 0.12039361894130707, 0.012636037543416023, 0.031208481639623642, -0.04380953311920166, 0.3102315068244934, -0.3333624005317688, 0.4575241804122925], "betas": [-1.9459130764007568, 0.7061166167259216, -0.8491336703300476, -0.4456540644168854, 0.6534978151321411, -0.11307952553033829, 1.366671085357666, -2.219226121902466, 0.44072800874710083, -1.0855395793914795], "has_smpl": 1}]
00097684.jpg	[{"center": [112, 112], "scale": 0.9, "2d_joints": [[102.5913674056503, 150.98942643325032, 1.0], [121.8519184530031, 137.34840906100177, 1.0], [135.90485509812166, 126.59525123284823, 1.0], [139.78503945772877, 113.38492344075229, 1.0], [136.0875902544478, 95.87692968015735, 1.0], [128.58334853156185, 97.03129018764174, 1.0], [127.66055987444169, 79.90250472610036, 1.0], [128.40867572209228, 73.51667881796182, 1.0], [132.5288303014163, 69.60018433205434, 1.0], [114.48227570675178, 89.95019948584847, 1.0], [115.62412457266473, 74.04262094157527, 1.0], [117.65651670850679, 71.40740159366689, 1.0], [122.16000865905703, 73.33500484482235, 1.0], [99.30802684477983, 93.56640777158908, 1.0], [103.81403178824777, 78.59589181052993, 1.0], [106.33191876907506, 74.31788554719719, 1.0], [111.49842173948014, 77.83415356172215, 1.0], [89.10154245701109, 98.53096016558368, 1.0], [91.40066139934045, 87.34463378820968, 1.0], [95.49751279434373, 83.05267995249743, 1.0], [102.06034775271294, 81.44501397837004, 1.0]], "has_2d_joints": 1, "3d_joints": [[0.0, 0.0, 0.0, 1.0], [0.031233899295330048, -0.02297152578830719, -0.012916326522827148, 1.0], [0.05326863378286362, -0.04062579199671745, -0.02477121353149414, 1.0], [0.05850476771593094, -0.061611197888851166, -0.04098576307296753, 1.0], [0.05169407278299332, -0.08806982636451721, -0.06294775009155273, 1.0], [0.04285445064306259, -0.08856160193681717, 0.010601639747619629, 1.0], [0.041016362607479095, -0.11630679666996002, 0.0008540749549865723, 1.0], [0.04159025102853775, -0.1252346932888031, -0.01870518922805786, 1.0], [0.04704383760690689, -0.1291632279753685, -0.045781850814819336, 1.0], [0.019494973123073578, -0.1002889946103096, 0.010494232177734375, 1.0], [0.021278776228427887, -0.12551604211330414, -0.004132866859436035, 1.0], [0.024347074329853058, -0.12809714674949646, -0.024864494800567627, 1.0], [0.030949421226978302, -0.12300923466682434, -0.05079466104507446, 1.0], [-0.005420111119747162, -0.09398120641708374, 0.0020095109939575195, 1.0], [0.002145640552043915, -0.11778992414474487, -0.008830010890960693, 1.0], [0.006470486521720886, -0.12302665412425995, -0.030853748321533203, 1.0], [0.014619894325733185, -0.11578690260648727, -0.055530428886413574, 1.0], [-0.02150736004114151, -0.08546432852745056, -0.011829197406768799, 1.0], [-0.017349697649478912, -0.10294641554355621, -0.022692382335662842, 1.0], [-0.010359250009059906, -0.10892495512962341, -0.03705179691314697, 1.0], [0.00025391578674316406, -0.11027850210666656, -0.05569136142730713, 1.0]], "has_3d_joints": 1, "hrnet_2d_joints": [[104.08946990966797, 151.18087768554688], [123.00881958007812, 139.35629272460938], [136.4100341796875, 125.955078125], [140.3515625, 113.34217834472656], [137.19833374023438, 96.7877426147461], [128.52696228027344, 96.7877426147461], [128.52696228027344, 79.44500732421875], [129.31527709960938, 72.35025024414062], [131.68019104003906, 69.197021484375], [115.1257553100586, 90.48129272460938], [116.7023696899414, 73.92686462402344], [117.49067687988281, 70.77363586425781], [122.22051239013672, 74.71516418457031], [100.14793395996094, 95.21113586425781], [104.08946990966797, 78.65670013427734], [106.45439147949219, 73.92686462402344], [111.9725341796875, 76.29177856445312], [88.3233413696289, 99.15266418457031], [92.26487731933594, 88.11637878417969], [95.41809844970703, 82.59822845458984], [102.51285552978516, 77.08008575439453]], "has_hrnet_2d_joints": 1, "pose": [0.8185643553733826, 1.292409062385559, 1.366109848022461, -0.02450244314968586, -0.48354557156562805, 0.12426269799470901, 0.17859891057014465, 0.1831817626953125, 0.1954774111509323, -0.09921865910291672, 0.11639831215143204, -0.1562003493309021, 0.05692658945918083, -0.06682291626930237, 0.17876988649368286, -0.07602634280920029, 0.03288264572620392, 0.19305634498596191, -0.03152887150645256, 0.0152034442871809, 0.16900715231895447, 0.037837330251932144, 0.30254167318344116, -0.060829177498817444, -0.1779702752828598, -0.12908461689949036, 0.05370883271098137, 0.2262251377105713, -0.046230118721723557, 0.06390464305877686, 0.1305265575647354, 0.14950305223464966, 0.041130974888801575, -0.04474189504981041, -0.18602877855300903, 0.10083416849374771, -0.04772244393825531, 0.23402139544487, 0.17587518692016602, 0.3348185122013092, 0.2046739012002945, 0.12039361894130707, 0.012636037543416023, 0.031208481639623642, -0.04380953311920166, 0.3102315068244934, -0.3333624005317688, 0.4575241804122925], "betas": [-1.9459130764007568, 0.7061166167259216, -0.8491336703300476, -0.4456540644168854, 0.6534978151321411, -0.11307952553033829, 1.366671085357666, -2.219226121902466, 0.44072800874710083, -1.0855395793914795], "has_smpl": 1}]
00000005.jpg	[{"center": [112, 112], "scale": 0.9, "2d_joints": [[160.73304459265077, 114.66162774597325, 1.0], [140.92741736804365, 99.62807659721045, 1.0], [131.10732017191384, 87.37312588050759, 1.0], [118.92266761988999, 82.35708159152831, 1.0], [107.36175691486335, 74.65692421223909, 1.0], [117.81204193009359, 115.41216066925804, 1.0], [104.85161131864191, 118.05061819045021, 1.0], [93.86205148474323, 119.78230259263255, 1.0], [80.14869855321004, 121.48819947253256, 1.0], [115.50151924125167, 130.91192657834475, 1.0], [100.89237637735391, 139.06628429447443, 1.0], [89.07260287994183, 142.90044284843128, 1.0], [75.03753535783721, 147.35731911337678, 1.0], [119.22355159991746, 141.25182790136614, 1.0], [104.2073347041489, 146.58304384590147, 1.0], [91.74762621597536, 150.19761042068873, 1.0], [77.19612487587389, 151.36294391798305, 1.0], [122.55690354445343, 146.69758422545064, 1.0], [111.96842784593412, 149.5190133534038, 1.0], [101.50728302283295, 150.3920707050832, 1.0], [88.93316489694499, 150.52423391640278, 1.0]], "has_2d_joints": 1, "3d_joints": [[0.0, 0.0, 0.0, 1.0], [-0.028751380741596222, -0.023597981315106153, 0.018398642539978027, 1.0], [-0.04314741492271423, -0.0443527209572494, 0.039012253284454346, 1.0], [-0.0627787746489048, -0.05376050574705005, 0.05363810062408447, 1.0], [-0.08240506425499916, -0.0688084620051086, 0.07429748773574829, 1.0], [-0.06443766131997108, 0.0017722365446388721, 0.0661272406578064, 1.0], [-0.08697297796607018, 0.006610766518861055, 0.08543729782104492, 1.0], [-0.10649430006742477, 0.009730637539178133, 0.08840936422348022, 1.0], [-0.1305904984474182, 0.01269823918119073, 0.08625459671020508, 1.0], [-0.0684449877589941, 0.027979687321931124, 0.06014692783355713, 1.0], [-0.09333616122603416, 0.042192470747977495, 0.0654153823852539, 1.0], [-0.1132117211818695, 0.048334692139178514, 0.06062209606170654, 1.0], [-0.13637378439307213, 0.05530494498088956, 0.05462747812271118, 1.0], [-0.06256738305091858, 0.04378681676462293, 0.039019644260406494, 1.0], [-0.08715103100985289, 0.0527047966606915, 0.04107046127319336, 1.0], [-0.10713082551956177, 0.057783995289355516, 0.033003389835357666, 1.0], [-0.12996848672628403, 0.058878634590655565, 0.025744378566741943, 1.0], [-0.05775342509150505, 0.05061160447075963, 0.017359435558319092, 1.0], [-0.074421102181077, 0.05428245710209012, 0.009907305240631104, 1.0], [-0.09044129960238934, 0.054791365284472704, 0.0019333958625793457, 1.0], [-0.10937074571847916, 0.05444661946967244, -0.003190755844116211, 1.0]], "has_3d_joints": 1, "hrnet_2d_joints": [[162.22471618652344, 115.27780151367188], [141.18893432617188, 98.67060089111328], [130.11746215820312, 86.49199676513672], [117.93885803222656, 82.06340789794922], [106.86739349365234, 73.20623779296875], [119.04600524902344, 113.06350708007812], [104.6530990600586, 114.170654296875], [92.4744873046875, 115.27780151367188], [78.08158874511719, 118.59923553466797], [115.72456359863281, 129.6707000732422], [100.22451782226562, 138.5278778076172], [88.04590606689453, 140.74217224121094], [74.76014709472656, 147.38504028320312], [119.04600524902344, 140.74217224121094], [103.54595184326172, 147.38504028320312], [89.1530532836914, 148.4921875], [76.97444152832031, 150.70648193359375], [121.26029968261719, 146.27789306640625], [110.18883514404297, 149.59933471679688], [98.01022338867188, 150.70648193359375], [86.93875885009766, 150.70648193359375]], "has_hrnet_2d_joints": 1, "pose": [1.0372493267059326, 0.5122395157814026, -0.7273378968238831, -0.057392630726099014, 0.10641683638095856, -0.29564765095710754, 0.06856836378574371, -0.167056143283844, -0.12598377466201782, -0.061903852969408035, -0.058353573083877563, -0.0113094262778759, 0.23303833603858948, -0.15840983390808105, 0.01734871044754982, -0.18239501118659973, -0.005331689491868019, -0.3815215826034546, 0.022160736843943596, -0.08132267743349075, -0.17364056408405304, -0.09671898931264877, -0.1039574146270752, 0.6311894059181213, 0.4436216950416565, -0.08988158404827118, -0.5002121925354004, 0.11825641989707947, 0.03058837167918682, -0.5133175849914551, 0.13328340649604797, -0.21086448431015015, 0.2077580839395523, 0.08767064660787582, -0.1660016030073166, -0.5124097466468811, 0.019085951149463654, 0.21451309323310852, -0.29989466071128845, -0.37216025590896606, 0.39960119128227234, -0.428804874420166, -0.018733244389295578, -0.06426926702260971, 0.6859509348869324, -0.308841735124588, 0.0203947052359581, -0.6401687264442444], "betas": [-0.11882340162992477, 0.29946333169937134, 1.4693896770477295, 0.8059508800506592, 1.451636791229248, 0.882104754447937, 0.1903037577867508, 0.32619941234588623, -0.6011390686035156, -0.7353143095970154], "has_smpl": 1}]
